!!!!SEGMENT: s-uu--vok-mus-i-hs-22-14_forster-kaspar--quid-faciam-misera.krn
!!!cenid: 16xx:1695
!!!COM: Förster, Kaspar
!!!COM-rismID: pe30006147
!!!CDT: ~1616-1673/02/02
!!!CNT: German
!!!OTL: Quid faciam misera
!!!PDT: 1681
!!!AGN:
!!!YEC: Copyright 2022 Narodowy Instytut Fryderyka Chopina (https://polishscores.org)
!!!YEM: License CC-BY-4.0 (https://creativecommons.org/licenses/by/4.0)
!!!SMS-siglum: S-Uu
!!!SMS-shelfmark: Vok. mus. i hs. 22:14
!!!SMS-shelfwork: W
!!!SMS-variant:
!!!SMS-altvar:
!!!NIFC-rismSourceID: 190008735
!!!NIFC-rismChildID: 190008735
!!!NIFC-islandoraID: none
!!!URL-pdf-islandora:
!!!URL-scan: https://www2.musik.uu.se/duben/presentationSource1.php?Select_Dnr=853 @EN{Scan on Academica} @PL{Skany w zewnętrznej bibliotece cyfrowej}
!!!IIIF:
!!!ONB-nifc: UWAGA: poszczególne partie dostępne po kliknięciu w „browse part”. Informacje nt stron tytułowych w opisie na stronie lub na RISM.
!!!AIN: 1 bass 1 organ 2 soprn 2 viola
!!!key: G:mix
**kern	**fba	**kern	**kern	**kern	**text	**mod-text	**kern	**text	**mod-text	**kern	**text	**mod-text
*group2	*	*group2	*group2	*group1	*	*	*group1	*	*	*group1	*	*
*part6	*	*part5	*part4	*part3	*	*	*part2	*	*	*part1	*	*
*staff6	*	*staff5	*staff4	*staff3	*	*	*staff2	*	*	*staff1	*	*
*I"[Basso continuo]	*	*I"Viola 2.	*I"Viola i.	*I"[Basso]	*	*	*I"Canto 2.	*	*	*I"Canto 1.	*	*
*mI"Basso continuo	*	*mI"Viola II	*mI"Viola I	*mI"Basso	*	*	*mI"Soprano 2	*	*	*I"Soprano 1	*	*
*I'bc	*	*I'vla 2	*I'vla 1	*I'B	*	*	*I'S 2	*	*	*I'S 1	*	*
*Iorgan	*	*Iviola	*Iviola	*Ibass	*	*	*Isoprn	*	*	*Isoprn	*	*
*ICklav	*	*ICstr	*ICstr	*ICvox	*	*	*ICvox	*	*	*ICvox	*	*
*IGcont	*	*IGacmp	*IGacmp	*IGcoro	*	*	*IGcoro	*	*	*IGcoro	*	*
*clefF4	*	*clefC1	*clefC1	*clefF4	*	*	*clefC1	*	*	*clefC1	*	*
*mclefF4	*	*mclefG2	*mclefG2	*mclefF4	*	*	*mclefG2	*	*	*mclefG2	*	*
*k[b-]	*	*k[b-]	*k[b-]	*k[b-]	*	*	*k[b-]	*	*	*k[b-]	*	*
*G:mix	*	*G:mix	*G:mix	*G:mix	*	*	*G:mix	*	*	*G:mix	*	*
*M2/1	*	*M2/1	*M2/1	*M2/1	*	*	*M2/1	*	*	*M2/1	*	*
*met(C)	*	*met(C)	*met(C)	*met(C)	*	*	*met(C)	*	*	*met(C)	*	*
=1-	=1-	=1-	=1-	=1-	=1-	=1-	=1-	=1-	=1-	=1-	=1-	=1-
!LO:TX:t=P:problem:kreski pseudotaktowe zaznaczone często jako krótkie kreski wyglądające jak oddech lub cezura 	!	!LO:TX:t=P:problem:być może viola da braccio lub sopranowa viola da gamba	!LO:TX:t=P:problem:być może viola da braccio lub sopranowa viola da gamba	!LO:TX:b:i:t=Cant.j.:mod=	!	!	!LO:TX:b:i:t=C.ſolo:mod=	!	!	!	!	!
!LO:TX:a:t=Cant.j.:mod=	!	!	!	!LO:TX:a:t=17.:mod=	!	!	!LO:TX:a:t=17:mod=	!	!	!LO:TX:t=P:problem:kreski psedotaktowe zaznaczone często jako krótkie kreski wyglądające jak oddech lub cezura 	!	!
1GG	.	2g/	2b-\	00r	.	.	00r	.	.	4r	.	.
!	!	!	!	!	!	!	!	!	!	!LO:TX:t=P:problem:brak źródła tekstowego w Internecie	!	!
.	.	.	.	.	.	.	.	.	.	4dd\	Qvid	Quid
.	.	2dd\	2g/	.	.	.	.	.	.	4.b-\	fa-	fa-
!	!	!	!	!	!	!	!	!	!	!LO:TX:t=P:problem:kreska pseudotaktowa	!	!
.	.	.	.	.	.	.	.	.	.	8b-\	-ci-	-ci-
2GG/	.	1dd	1b-	.	.	.	.	.	.	4.g/	-am	-am
.	.	.	.	.	.	.	.	.	.	16a\LL	.	.
.	.	.	.	.	.	.	.	.	.	16b-\JJ	.	.
2GG/	.	.	.	.	.	.	.	.	.	4.g/	mi-	mi-
!	!	!	!	!	!	!	!	!	!	!LO:TX:t=P:problem:kreska pseudotaktowa	!	!
.	.	.	.	.	.	.	.	.	.	8g/	-ſe-	-ſe-
=2-	=2-	=2-	=2-	=2-	=2-	=2-	=2-	=2-	=2-	=2-	=2-	=2-
2GG/	.	2b-\	2dd\	.	.	.	.	.	.	2g/	-ra,	-ra,
!	!LO:MO:mod==6	!	!	!	!	!	!	!	!	!	!	!
2G\	-6r	2g/	4ee-X\	.	.	.	.	.	.	4r	.	.
.	.	.	4b-\	.	.	.	.	.	.	4ee-X\	quo,	quo,
2A\	6:5	4f/	2cc\	.	.	.	.	.	.	4r	.	.
.	.	4e-X/	.	.	.	.	.	.	.	8ee-\	quo	quo
.	.	.	.	.	.	.	.	.	.	8dd\	me	me
!LO:TX:t=P:problem:kreska pseudotaktowa	!	!LO:SIC:s=[2f/	!LO:TX:t=P:problem:kreska pseudotaktowa	!	!	!	!	!	!	!	!	!
2B-\	.	2f/	[2b-\	.	.	.	.	.	.	4dd\	ver-	ver-
!	!	!	!	!	!	!	!	!	!	!LO:TX:t=P:problem:kreska pseudotaktowa	!	!
.	.	.	.	.	.	.	.	.	.	4dd\	-tam,	-tam,
=3-	=3-	=3-	=3-	=3-	=3-	=3-	=3-	=3-	=3-	=3-	=3-	=3-
!	!	!LO:SIC:s=2f/]	!	!	!	!	!	!	!	!	!	!
2BB-/	.	2f/	2b-]	00r	.	.	00r	.	.	4r	.	.
*	*	*	*	*	*	*	*	*	*	*	*ij	*
.	.	.	.	.	.	.	.	.	.	8dd\	quo	quo
.	.	.	.	.	.	.	.	.	.	8dd\	me	me
!LO:TX:t=P:problem:kreska pseudotaktowa	!	!	!	!	!	!	!	!	!	!	!	!
2D/	# X	2d/	2a\	.	.	.	.	.	.	4f#X/	ver-	ver-
.	.	.	.	.	.	.	.	.	.	4f#/	-tam	-tam
*	*	*	*	*	*	*	*	*	*	*	*Xij	*
2D/	# X	2a\	2dd\	.	.	.	.	.	.	4r	.	.
.	.	.	.	.	.	.	.	.	.	8f#/	de-	de-
.	.	.	.	.	.	.	.	.	.	8f#/	-re-	-re-
4E-X\	6 X	4cc\	4g/	.	.	.	.	.	.	4.g/	-li-	-li-
!LO:MO:mod=!null:null	!	!	!	!	!	!	!	!	!	!	!	!
!LO:N:acc=#	!	!	!	!	!	!	!	!	!	!	!	!
4En\	6\ X	8g/L	4cc#X\	.	.	.	.	.	.	.	.	.
.	.	8eny/J	.	.	.	.	.	.	.	8a\	.	.
=4-	=4-	=4-	=4-	=4-	=4-	=4-	=4-	=4-	=4-	=4-	=4-	=4-
2D/	.	2f#X/	2dd\	.	.	.	.	.	.	2a\	-cta,	-cta,
2BB-/	.	4d/	2b-\	.	.	.	.	.	.	4r	.	.
.	.	4fny/	.	.	.	.	.	.	.	4dd\	à	a
*	*	*	*	*	*	*	*	*	*	*custos:ff	*	*
!	!	!	!	!	!	!	!	!	!	!LO:LB:g=original	!	!
1BB-	.	1b-	1dd	.	.	.	.	.	.	4.ff\	quo	quo
.	.	.	.	.	.	.	.	.	.	8ff\	aú-	au-
.	.	.	.	.	.	.	.	.	.	4dd\	-xi-	-xi-
.	.	.	.	.	.	.	.	.	.	8ee-X\	-li-	-li-
!	!	!	!	!	!	!	!	!	!	!LO:TX:t=P:problem:kreska pseudotaktowa	!	!
.	.	.	.	.	.	.	.	.	.	8ff\	-úm	-um
!!linebreak:original
=5-	=5-	=5-	=5-	=5-	=5-	=5-	=5-	=5-	=5-	=5-	=5-	=5-
2BB-/	8 X	2dd\	2.ff\	00r	.	.	00r	.	.	4b-\	pe-	pe-
.	.	.	.	.	.	.	.	.	.	8b-\	-tam	-tam
.	.	.	.	.	.	.	.	.	.	8a-X\	co-	co-
2BB-/	7 X	2fny/	.	.	.	.	.	.	.	4.a-\	-an-	-an-
!	!	!	!LO:TX:t=P:problem:kreska pseudotaktowa	!	!	!	!	!	!	!	!	!
.	6 X	.	4ee-X\	.	.	.	.	.	.	.	.	.
!	!	!	!	!	!	!	!	!	!	!LO:TX:t=P:problem:kreska pseudotaktowa	!	!
.	.	.	.	.	.	.	.	.	.	8g/	-gús-	-gu-
2E-X\	.	2e-X/	2b-\	.	.	.	.	.	.	4g/	-ta-	-sta-
.	.	.	.	.	.	.	.	.	.	4g/	-ta	-ta
!LO:TX:t=P:problem:kreska pseudotaktowa	!	!	!	!	!	!	!	!	!	!	!	!
2C/	.	2cc\	2g/	.	.	.	.	.	.	4r	.	.
.	.	.	.	.	.	.	.	.	.	(>8.ee-X\L	co-	co-
!	!	!	!	!	!	!	!	!	!	!LO:TX:t=P:problem:kreska pseudotaktowa	!	!
.	.	.	.	.	.	.	.	.	.	16dd\Jk)	.	.
=6-	=6-	=6-	=6-	=6-	=6-	=6-	=6-	=6-	=6-	=6-	=6-	=6-
2C/	6 X	2cc\	4g/	.	.	.	.	.	.	(>8.cc\L	-an-	-an-
.	.	.	.	.	.	.	.	.	.	16b-\Jk)	.	.
.	.	.	[>2a\	.	.	.	.	.	.	(>8.a\L	-gú-	-gu-
.	.	.	.	.	.	.	.	.	.	16g\Jk)	.	.
4.D/	# x	2f#X/	.	.	.	.	.	.	.	8.f#X/L	-sta-	-sta-
.	.	.	.	.	.	.	.	.	.	16e/Jk	.	.
!	!	!	!	!	!	!	!	!	!	!LO:TX:t=P:problem:kreska pseudotaktowa	!	!
.	.	.	8aL]	.	.	.	.	.	.	4d/	.	.
8C/	.	.	16b-\L	.	.	.	.	.	.	.	.	.
!	!	!	!LO:TX:t=P:problem:kreska pseudotaktowa	!	!	!	!	!	!	!	!	!
.	.	.	16ccny\JJ	.	.	.	.	.	.	.	.	.
*	*	*	*custos:dd	*	*	*	*	*	*	*	*	*
!	!	!	!LO:LB:g=original	!	!	!	!	!	!	!	!	!
4.BB-/	.	2g/	4.dd\	.	.	.	.	.	.	8.b-\L	.	.
.	.	.	.	.	.	.	.	.	.	16a\Jk	.	.
.	.	.	.	.	.	.	.	.	.	2g/	.	.
8C/	.	.	8cc\	.	.	.	.	.	.	.	.	.
2D/	4:# X	4.dd\	2a\	.	.	.	.	.	.	.	.	.
!	!	!	!	!	!	!	!	!	!	!LO:TX:t=P:problem:kreska pseudotaktowa	!	!
.	.	.	.	.	.	.	.	.	.	4f#X/	.	.
!	!	!LO:TX:t=P:problem:kreska pseudotaktowa	!	!	!	!	!	!	!	!	!	!
.	.	8cc\	.	.	.	.	.	.	.	.	.	.
*	*	*custos:dd	*	*	*	*	*	*	*	*	*	*
!	!	!LO:LB:g=original	!	!	!	!	!	!	!	!	!	!
=7-	=7-	=7-	=7-	=7-	=7-	=7-	=7-	=7-	=7-	=7-	=7-	=7-
!	!	!	!LO:MO:mod=!null:null	!	!	!	!	!	!	!	!	!
!	!	!	!LO:N:acc=#	!	!	!	!	!	!	!	!	!
4.GG/	5 X	2dd\	2bn\	00r	.	.	00r	.	.	2g/	-ta,	-ta,
8AA/	.	.	.	.	.	.	.	.	.	.	.	.
!LO:MO:mod=!null:null	!	!LO:MO:mod=!null:null	!	!	!	!	!	!	!	!	!	!
!LO:N:acc=#	!	!LO:N:acc=#	!	!	!	!	!	!	!	!	!	!
2BBn/	6 X	2bn\	2g/	.	.	.	.	.	.	4r	.	.
!	!	!	!	!	!	!	!	!	!	!LO:TX:t=P:problem:kreska pseudotaktowa	!	!
.	.	.	.	.	.	.	.	.	.	4dd\	à	a
*	*	*	*	*	*	*	*	*	*	*custos:ff	*	*
!	!	!	!	!	!	!	!	!	!	!LO:LB:g=original	!	!
1BB	5 3	1f	2.dd\	.	.	.	.	.	.	4ff\	quo	quo
.	.	.	.	.	.	.	.	.	.	8r	.	.
.	.	.	.	.	.	.	.	.	.	8ff\	aú-	au-
.	.	.	.	.	.	.	.	.	.	4ff\	-xi-	-xi-
.	.	.	4cc\	.	.	.	.	.	.	8ee-X\	-li-	-li-
!	!	!	!	!	!	!	!	!	!	!LO:TX:t=P:problem:kreska pseudotaktowa	!	!
.	.	.	.	.	.	.	.	.	.	8dd\	-úm	-um
=8-	=8-	=8-	=8-	=8-	=8-	=8-	=8-	=8-	=8-	=8-	=8-	=8-
1C	- X	1g	1cc	.	.	.	.	.	.	4ee-X\	pe-	pe-
.	.	.	.	.	.	.	.	.	.	4ee-\	-tam	-tam
.	.	.	.	.	.	.	.	.	.	4r	.	.
.	.	.	.	.	.	.	.	.	.	4ee-X\	co-	co-
4F#X\	.	4f#X/	4a\	.	.	.	.	.	.	(>8.dd\L	-an-	-an-
.	.	.	.	.	.	.	.	.	.	16cc\Jk)	.	.
!	!	!	!	!	!	!	!	!	!	!LO:MO:mod=!null:null	!	!
!	!	!	!	!	!	!	!	!	!	!LO:N:acc=#	!	!
4G\	.	4dd\	4g/	.	.	.	.	.	.	4bn\	-gú-	-gu-
4.E-X\	.	2ee-X\	2g/	.	.	.	.	.	.	2cc\	-sta-	-sta-
8Fny\	6 X	.	.	.	.	.	.	.	.	.	.	.
=9-	=9-	=9-	=9-	=9-	=9-	=9-	=9-	=9-	=9-	=9-	=9-	=9-
2G\	.	2dd\	4g/	1r	.	.	1r	.	.	16.cc\LL	.	.
.	.	.	.	.	.	.	.	.	.	32dd\JK	.	.
.	.	.	.	.	.	.	.	.	.	8ee-X\J	.	.
.	.	.	8.b-y\L	.	.	.	.	.	.	8dd\L	.	.
.	.	.	.	.	.	.	.	.	.	16ee-X\L	.	.
.	.	.	16cc\Jk	.	.	.	.	.	.	16ff\JJ	.	.
2C/	.	2eeny\	2cc\	.	.	.	.	.	.	2cc\	-ta	-ta?
!LO:LB:g=original	!	!	!	!	!	!	!	!	!	!	!	!
=10||	=10||	=10||	=10||	=10||	=10||	=10||	=10||	=10||	=10||	=10||	=10||	=10||
!	!	!LO:MO:null:mod=*M2/1	!LO:MO:null:mod=*M2/1	!LO:MO:null:mod=*M2/1	!	!	!LO:MO:null:mod=*M2/1	!	!	!	!	!
*M2/1	*	*	*	*	*	*	*	*	*	*M2/1	*	*
*met(C)	*	*	*	*	*	*	*	*	*	*met(C)	*	*
!LO:TX:a:t=Cant 2.:mod=	!	!	!	!	!	!	!	!	!	!	!	!
1C	- X	1g	2cc\	0r	.	.	4r	.	.	0r	.	.
.	.	.	.	.	.	.	4g/	Ac-	Ac-	.	.	.
.	.	.	2ee-X\	.	.	.	8.cc\	-ce-	-ce-	.	.	.
.	.	.	.	.	.	.	16cc\	-le-	-le-	.	.	.
!	!	!	!	!	!	!	!LO:TX:t=P:problem:kreska pseudotaktowa	!	!	!	!	!
.	.	.	.	.	.	.	4cc\	-ra	-ra	.	.	.
2C/	.	2cc\	1ee-	.	.	.	4r	.	.	.	.	.
.	.	.	.	.	.	.	8cc\	ad	ad	.	.	.
.	.	.	.	.	.	.	8b-\	de-	de-	.	.	.
2C/	.	2g/	.	.	.	.	8b-\	-ſi-	-ſi-	.	.	.
.	.	.	.	.	.	.	8b-\	-de-	-de-	.	.	.
.	.	.	.	.	.	.	8b-\	-ra-	-ra-	.	.	.
!	!	!	!	!	!	!	!LO:TX:t=P:problem:kreska pseudotaktowa	!	!	!	!	!
.	.	.	.	.	.	.	8b-\	-túm	-tum	.	.	.
=11-	=11-	=11-	=11-	=11-	=11-	=11-	=11-	=11-	=11-	=11-	=11-	=11-
2C/	.	2g/	2ee-\	1r	.	.	4.b-\	cún-	cun-	1r	.	.
.	.	.	.	.	.	.	8cc\	-ctis	-ctis	.	.	.
2F\	.	2a\	2cc\	.	.	.	8.a\	gen-	gen-	.	.	.
.	.	.	.	.	.	.	16a\	-ti-	-ti-	.	.	.
.	.	.	.	.	.	.	4a\	-b(us)	-bus	.	.	.
=12-	=12-	=12-	=12-	=12-	=12-	=12-	=12-	=12-	=12-	=12-	=12-	=12-
!	!	!	!LO:MO:mod=*M3/1	!LO:MO:mod=*M3/1	!	!	!LO:MO:mod=*M3/1	!	!	!LO:MO:mod=*M3/1	!	!
*M3/1	*	*M3/1	*M3/2	*M3/2	*	*	*M3/2	*	*	*M3/2	*	*
!	!	!	!	!LO:TX:b:i:t=Cant.2.:mod=	!	!	!	!	!	!LO:TX:b:i:t=C.2.solo.:mod=	!	!
!	!	!	!	!LO:TX:a:t=9:mod=	!	!	!	!	!	!LO:TX:a:t=9.:mod=	!	!
1.F	.	1fny	1.cc	00.r	.	.	2.a\	pro-	pro-	00.r	.	.
.	.	.	.	.	.	.	4g/	-pe-	-pe-	.	.	.
!	!	!	!	!	!	!	!LO:TX:t=P:problem:kreska pseudotaktowa	!	!	!	!	!
.	.	2a\	.	.	.	.	2f/	-ra,	-ra,	.	.	.
1.BB-	.	1.f	1b-	.	.	.	2.dd\	pro-	pro-	.	.	.
.	.	.	.	.	.	.	4cc\	-pe-	-pe-	.	.	.
*	*	*	*	*	*	*	*2\right	*	*	*	*	*
.	.	.	[2dd\	.	.	.	2b-\	-ra	-ra	.	.	.
*	*	*	*	*	*	*	*custos:b-	*	*	*	*	*
!	!	!	!	!	!	!	!LO:LB:g=original	!	!	!	!	!
=13-	=13-	=13-	=13-	=13-	=13-	=13-	=13-	=13-	=13-	=13-	=13-	=13-
2BB-/	8 X	2f/	2dd\]	.	.	.	(>4b-\	ad	ad	.	.	.
.	7 X	.	.	.	.	.	4a\)	.	.	.	.	.
*	*	*	*	*	*	*	*2\left	*	*	*	*	*
!LO:TX:t=P:problem:kreska pseudotaktowa	!	!	!LO:TX:t=P:problem:kreska pseudotaktowa	!	!	!	!	!	!	!	!	!
1C	.	1e	1cc	.	.	.	2g/	Je-	Je-	.	.	.
!	!	!	!	!	!	!	!LO:TX:t=P:problem:kreska pseudotaktowa	!	!	!	!	!
.	.	.	.	.	.	.	2g/	-ſúm	-ſum	.	.	.
*	*	*	*custos:g	*	*	*	*	*	*	*	*	*
!	!	!	!LO:LB:g=original	!	!	!	!	!	!	!	!	!
1E	6 X	1e	1g	.	.	.	2.cc\	pro-	pro-	.	.	.
.	.	.	.	.	.	.	4b-\	-pe-	-pe-	.	.	.
*	*	*	*2\right	*	*	*	*	*	*	*	*	*
!	!	!	!LO:TX:t=P:problem:all\right:global	!	!	!	!	!	!	!	!	!
!	!	!	!	!	!	!	!LO:TX:t=P:problem:kreska pseudotaktowa	!	!	!	!	!
2F\	.	2a\	2cc\	.	.	.	2a\	-ra	-ra	.	.	.
=14-	=14-	=14-	=14-	=14-	=14-	=14-	=14-	=14-	=14-	=14-	=14-	=14-
2FF/	.	2cc\	2a\	00.r	.	.	2ff\	ad	ad	00.r	.	.
!	!	!	!LO:MO:mod=!null:null	!	!	!	!LO:TX:t=P:problem:kreska pseudotaktowa	!	!	!	!	!
!	!	!	!LO:N:acc=#	!	!	!	!	!	!	!	!	!
1GG	4:3 X	1g	2.bn\	.	.	.	1dd	Je-	Je-	.	.	.
.	.	.	4cc\	.	.	.	.	.	.	.	.	.
1C	.	1.g	1.cc	.	.	.	1.ee	-ſúm,	-ſum,	.	.	.
2BB-/	.	.	.	.	.	.	.	.	.	.	.	.
=15-	=15-	=15-	=15-	=15-	=15-	=15-	=15-	=15-	=15-	=15-	=15-	=15-
1.AA	6 X	1.f	1a	.	.	.	2.cc\	pro-	pro-	.	.	.
.	.	.	.	.	.	.	4b-\	-pe-	-pe-	.	.	.
!	!	!	!	!	!	!	!LO:TX:t=P:problem:kreska pseudotaktowa	!	!	!	!	!
.	.	.	2cc\	.	.	.	2a\	-ra	-ra	.	.	.
*	*	*custos:f	*	*	*	*	*	*	*	*	*	*
!	!	!LO:LB:g=original	!	!	!	!	!	!	!	!	!	!
2BB-/	.	2f/	2ff\	.	.	.	2dd\	ad	ad	.	.	.
1C	4 X	2f/	1cc	.	.	.	1g	Je-	Je-	.	.	.
.	3 X	2g/	.	.	.	.	.	.	.	.	.	.
=16-	=16-	=16-	=16-	=16-	=16-	=16-	=16-	=16-	=16-	=16-	=16-	=16-
1.FF	.	1.a	1.cc	1.r	.	.	1.f	-ſúm.	-ſum.	1.r	.	.
!LO:LB:g=original	!	!	!	!	!	!	!	!	!	!	!	!
=17||	=17||	=17||	=17||	=17||	=17||	=17||	=17||	=17||	=17||	=17||	=17||	=17||
*M2/1	*	*M2/1	*M2/1	*M2/1	*	*	*M2/1	*	*	*M2/1	*	*
*met(C|)	*	*met(O)	*met(C)	*met(C)	*	*	*met(C|)	*	*	*met(C)	*	*
!	!	!	!	!LO:TX:a:t=9:mod=	!	!	!	!	!	!LO:TX:a:t=9:mod=	!	!
1FF#X	6 X	2f#X/	2a\	00r	.	.	4r	.	.	00r	.	.
.	.	.	.	.	.	.	4dd\	is	Is	.	.	.
.	.	2d/	2cc\	.	.	.	8.a\	la-	la-	.	.	.
.	.	.	.	.	.	.	16a\	-ce-	-ce-	.	.	.
.	.	.	.	.	.	.	8a\	-rat	-rat	.	.	.
!	!	!	!	!	!	!	!LO:TX:t=P:problem:kreska pseudotaktowa	!	!	!	!	!
.	.	.	.	.	.	.	8b-\	et	et	.	.	.
*	*	*	*	*	*	*	*custos:b-	*	*	*	*	*
!	!	!	!	!	!	!	!LO:LB:g=original	!	!	!	!	!
2GG/	.	1g	2dd\	.	.	.	4b-\	ſa-	ſa-	.	.	.
.	.	.	.	.	.	.	4b-\	-nat,	-nat,	.	.	.
2GG/	.	.	2b-y\	.	.	.	4r	.	.	.	.	.
.	.	.	.	.	.	.	(>8.dd\L	is	is	.	.	.
!	!	!	!	!	!	!	!LO:TX:t=P:problem:kreska pseudotaktowa	!	!	!	!	!
.	.	.	.	.	.	.	16ee-X\Jk)	.	.	.	.	.
=18-	=18-	=18-	=18-	=18-	=18-	=18-	=18-	=18-	=18-	=18-	=18-	=18-
!	!LO:MO:mod==5 X	!	!	!	!	!	!	!	!	!	!	!
2AA/	-5r X	2c/	2cc\	.	.	.	8.ee-y\	la-	la-	.	.	.
.	.	.	.	.	.	.	16ee-\	-ce-	-ce-	.	.	.
.	.	.	.	.	.	.	8ee-\	-rat	-rat	.	.	.
.	.	.	.	.	.	.	8ee-\	et	et	.	.	.
2BB-/	.	2fny/	2b-\	.	.	.	4dd\	ſa-	ſa-	.	.	.
!	!	!	!	!	!	!	!LO:TX:t=P:problem:kreska pseudotaktowa	!	!	!	!	!
.	.	.	.	.	.	.	4dd\	-nat,	-nat,	.	.	.
2BB-/	.	2f/	1b-	.	.	.	8r	.	.	.	.	.
.	.	.	.	.	.	.	16ff\LL	de-	de-	.	.	.
.	.	.	.	.	.	.	16ee-\JJ	.	.	.	.	.
.	.	.	.	.	.	.	16dd\LL	.	.	.	.	.
.	.	.	.	.	.	.	16cc\	.	.	.	.	.
.	.	.	.	.	.	.	16b-\	.	.	.	.	.
.	.	.	.	.	.	.	16a\JJ	.	.	.	.	.
4.E-X\	.	4.e-X/	.	.	.	.	8.g/	.	.	.	.	.
.	.	.	.	.	.	.	16g/	-pri-	-pri-	.	.	.
!	!	!	!	!	!	!	!LO:TX:t=P:problem:kreska pseudotaktowa	!	!	!	!	!
.	.	.	.	.	.	.	4g/	-mit,	-mit,	.	.	.
8D/	.	8f/	.	.	.	.	.	.	.	.	.	.
=19-	=19-	=19-	=19-	=19-	=19-	=19-	=19-	=19-	=19-	=19-	=19-	=19-
!LO:TX:t=P:problem:kreska pseudotaktowa	!	!	!	!	!	!	!	!	!	!	!	!
1C	- X	2g/	1cc	00r	.	.	8r	.	.	00r	.	.
.	.	.	.	.	.	.	16ee-X\	et	et	.	.	.
.	.	.	.	.	.	.	16dd\	ex-	ex-	.	.	.
.	.	.	.	.	.	.	16cc\LL	-tol-	-tol-	.	.	.
.	.	.	.	.	.	.	16dd\	.	.	.	.	.
.	.	.	.	.	.	.	16cc\	.	.	.	.	.
.	.	.	.	.	.	.	16b-\JJ	.	.	.	.	.
.	.	2a\	.	.	.	.	8a\L	.	.	.	.	.
.	.	.	.	.	.	.	16cc\L	.	.	.	.	.
.	.	.	.	.	.	.	16b-\JJ	.	.	.	.	.
.	.	.	.	.	.	.	16a\LL	.	.	.	.	.
.	.	.	.	.	.	.	16b-\	.	.	.	.	.
.	.	.	.	.	.	.	16a\	.	.	.	.	.
!	!	!	!	!	!	!	!LO:TX:t=P:problem:kreska pseudotaktowa	!	!	!	!	!
.	.	.	.	.	.	.	16g\JJ	.	.	.	.	.
*	*	*	*	*	*	*	*custos:f#	*	*	*	*	*
!	!	!	!	!	!	!	!LO:LB:g=original	!	!	!	!	!
4.D/	# X	2dd\	2a\	.	.	.	16f#X/LL	.	.	.	.	.
.	.	.	.	.	.	.	16g/	.	.	.	.	.
.	.	.	.	.	.	.	16a/	.	.	.	.	.
.	.	.	.	.	.	.	16g/JJ	.	.	.	.	.
.	.	.	.	.	.	.	16f#X/LL	.	.	.	.	.
.	.	.	.	.	.	.	16g/	.	.	.	.	.
8C/	.	.	.	.	.	.	16e/	.	.	.	.	.
.	.	.	.	.	.	.	16f#/JJ	.	.	.	.	.
4BB-/	6 X	2g/	4dd\	.	.	.	16g\LL	.	.	.	.	.
.	.	.	.	.	.	.	16a\	.	.	.	.	.
.	.	.	.	.	.	.	16b-\	.	.	.	.	.
.	.	.	.	.	.	.	16cc\JJ	.	.	.	.	.
4GG/	.	.	4b-\	.	.	.	16dd\LL	.	.	.	.	.
.	.	.	.	.	.	.	16cc\	.	.	.	.	.
.	.	.	.	.	.	.	16dd\	.	.	.	.	.
!	!	!	!	!	!	!	!LO:TX:t=P:problem:kreska pseudotaktowa	!	!	!	!	!
.	.	.	.	.	.	.	16ee-\JJ	.	.	.	.	.
=20-	=20-	=20-	=20-	=20-	=20-	=20-	=20-	=20-	=20-	=20-	=20-	=20-
2FFny/	.	1a	1cc	.	.	.	4ff\	.	.	.	.	.
.	.	.	.	.	.	.	4ff\	-lit,	-lit,	.	.	.
2AA/	6 X	.	.	.	.	.	4r	.	.	.	.	.
.	.	.	.	.	.	.	(>16cc\LL	de-	de-	.	.	.
.	.	.	.	.	.	.	16a\	.	.	.	.	.
.	.	.	.	.	.	.	16b-\	.	.	.	.	.
!	!	!	!	!	!	!	!LO:TX:t=P:problem:kreska pseudotaktowa	!	!	!	!	!
.	.	.	.	.	.	.	16cc\JJ)	.	.	.	.	.
*	*	*	*custos:b-	*	*	*	*	*	*	*	*	*
!	!	!	!LO:LB:g=original	!	!	!	!	!	!	!	!	!
!	!	!	!LO:TX:t=P:problem:all\left:global	!	!	!	!	!	!	!	!	!
2BB-/	6 5	2f/	4b-X\	.	.	.	8dd\	.	.	.	.	.
.	.	.	.	.	.	.	16dd\	-pri-	-pri-	.	.	.
.	.	.	.	.	.	.	16cc\	-mit	-mit	.	.	.
.	.	.	4dd\	.	.	.	8b-\	et	et	.	.	.
.	.	.	.	.	.	.	8a\	ex-	ex-	.	.	.
2C/	4 X	4f/	2cc\	.	.	.	2g/	-tol-	-tol-	.	.	.
.	3 X	8.eny/L	.	.	.	.	.	.	.	.	.	.
.	.	16g/Jk	.	.	.	.	.	.	.	.	.	.
=21-	=21-	=21-	=21-	=21-	=21-	=21-	=21-	=21-	=21-	=21-	=21-	=21-
1FF	.	1a	1cc	1r	.	.	1f	-lit.	-lit.	1r	.	.
!LO:LB:g=original	!	!LO:LB:g=original	!	!	!	!	!	!	!	!	!	!
=22||	=22||	=22||	=22||	=22||	=22||	=22||	=22||	=22||	=22||	=22||	=22||	=22||
!	!	!	!LO:MO:null:mod=*M4/4	!LO:MO:null:mod=*M4/4	!	!	!LO:MO:null:mod=*M4/4	!	!	!	!	!
*M4/4	*	*M4/4	*	*	*	*	*	*	*	*M4/4	*	*
*met(C)	*	*met(C)	*	*	*	*	*	*	*	*met(C)	*	*
!LO:TX:t=P:problem:sporadyczne kreski pesudotaktowe wskazujące na metrum4/4:note=nie kłócę się i zostawiam w ten sposób K.S. (modern)	!	!	!	!LO:TX:b:i:t=C.j.:mod=	!	!	!	!	!	!	!	!
!LO:TX:a:t=Cant.&colon;1.:mod=	!	!	!	!LO:TX:a:t=25.:mod=	!	!	!LO:TX:b:i:t=Cant.j.Sol.:mod=	!	!	!	!	!
4.F\	.	1a	4.cc\	00r	.	.	00r	.	.	4f/	Vo-	Vo-
.	.	.	.	.	.	.	.	.	.	4f/	-ce	-ce
8Eny\	.	.	8cc\	.	.	.	.	.	.	.	.	.
*	*	*	*2\left	*	*	*	*	*	*	*	*	*
!	!	!	!LO:TX:t=P:problem:kreska pseudotaktowa	!	!	!	!	!	!	!	!	!
4D/	.	.	2dd\	.	.	.	.	.	.	2f/	me-	me-
8C/L	.	.	.	.	.	.	.	.	.	.	.	.
!LO:TX:t=P:problem:kreska pseudotaktowa	!	!	!	!	!	!	!	!	!	!	!	!
8BB-/J	.	.	.	.	.	.	.	.	.	.	.	.
=23-	=23-	=23-	=23-	=23-	=23-	=23-	=23-	=23-	=23-	=23-	=23-	=23-
4AA/	6 X	4a\	4cc\	.	.	.	.	.	.	2f/	-a	-a
!	!	!LO:TX:t=P:problem:mixed beam	!	!	!	!	!	!	!	!	!	!
4BB-/	.	8dd\L	8.b-\L	.	.	.	.	.	.	.	.	.
.	.	8d/J	.	.	.	.	.	.	.	.	.	.
.	.	.	16a\Jk	.	.	.	.	.	.	.	.	.
4C/	.	4e/	4g/	.	.	.	.	.	.	4r	.	.
!LO:TX:t=P:problem:kreska pseudotaktowa	!	!LO:TX:t=P:problem:kreska pseudotaktowa	!LO:TX:t=P:problem:kreska pseudotaktowa	!	!	!	!	!	!	!	!	!
4AA/	6 X	4f/	4a\	.	.	.	.	.	.	8r	.	.
!	!	!	!	!	!	!	!	!	!	!LO:TX:t=P:problem:kreska pseudotaktowa	!	!
.	.	.	.	.	.	.	.	.	.	8cc\	ad	ad
=24-	=24-	=24-	=24-	=24-	=24-	=24-	=24-	=24-	=24-	=24-	=24-	=24-
4BB-/	.	4b-\	4f/	.	.	.	.	.	.	4dd\	Te,	te,
4C/	.	4g/	4cc\	.	.	.	.	.	.	8r	.	.
.	.	.	.	.	.	.	.	.	.	8ee\	ad	ad
!	!	!	!	!	!	!	!	!	!	!LO:TX:t=P:problem:kreska pseudotaktowa	!	!
4.D/	.	4.f/	4a\	.	.	.	.	.	.	2ff\	Te	te,
.	.	.	8dd\L	.	.	.	.	.	.	.	.	.
!LO:TX:t=P:problem:kreska pseudotaktowa	!	!LO:TX:t=P:problem:kreska pseudotaktowa	!LO:TX:t=P:problem:kreska pseudotaktowa	!	!	!	!	!	!	!	!	!
8E\	6 X	8g/	8cc\J	.	.	.	.	.	.	.	.	.
=25-	=25-	=25-	=25-	=25-	=25-	=25-	=25-	=25-	=25-	=25-	=25-	=25-
4F\	.	4a\	4a\	.	.	.	.	.	.	4cc\	Fi-	Fi-
8E\L	6 X	4e/	8g/L	.	.	.	.	.	.	8cc\	-li	-li
8D\J	.	.	8f/J	.	.	.	.	.	.	8cc\	Da-	Da-
!	!	!LO:TX:t=P:problem:kreska pseudotaktowa	!LO:TX:t=P:problem:kreska pseudotaktowa	!	!	!	!	!	!	!LO:TX:t=P:problem:kreska pseudotaktowa	!	!
8C/L	.	2e/	2g/	.	.	.	.	.	.	[>2cc\	-vi-	-vi-
8BB-/	.	.	.	.	.	.	.	.	.	.	.	.
8AA/	.	.	.	.	.	.	.	.	.	.	.	.
!LO:TX:t=P:problem:kreska pseudotaktowa	!	!	!	!	!	!	!	!	!	!	!	!
8GG/J	.	.	.	.	.	.	.	.	.	.	.	.
=26-	=26-	=26-	=26-	=26-	=26-	=26-	=26-	=26-	=26-	=26-	=26-	=26-
8FF/L	.	4f/	4a\	00r	.	.	00r	.	.	4cc]	.	.
8GG/	.	.	.	.	.	.	.	.	.	.	.	.
8EE/	6 X	8.cc\L	4g/	.	.	.	.	.	.	4cc\	-dis	-dis
8FF/J	.	.	.	.	.	.	.	.	.	.	.	.
.	.	16a\Jk	.	.	.	.	.	.	.	.	.	.
8DD/L	.	4.a\	4.f/	.	.	.	.	.	.	4.dd\	cla-	cla-
8EE/	.	.	.	.	.	.	.	.	.	.	.	.
8FF/	.	.	.	.	.	.	.	.	.	.	.	.
!	!	!LO:TX:t=P:problem:kreska pseudotaktowa	!LO:TX:t=P:problem:kreska pseudotaktowa	!	!	!	!	!	!	!LO:TX:t=P:problem:kreska pseudotaktowa	!	!
!	!	!	!LO:MO:mod=!null:null	!	!	!	!	!	!	!	!	!
!	!	!	!LO:N:acc=#	!	!	!	!	!	!	!	!	!
8GG/J	.	8g/	8bn\	.	.	.	.	.	.	8dd\	-mi-	-mi-
=27-	=27-	=27-	=27-	=27-	=27-	=27-	=27-	=27-	=27-	=27-	=27-	=27-
8CC/L	.	8g\L	8cc\L	.	.	.	.	.	.	2ee\	-to,	-to,
8C/	.	8ee\	8cc\	.	.	.	.	.	.	.	.	.
8AA/	.	8cc\	8ee\	.	.	.	.	.	.	.	.	.
8BB-/J	.	8b-\J	8dd\J	.	.	.	.	.	.	.	.	.
!	!	!LO:TX:t=P:problem:kreska pseudotaktowa	!LO:TX:t=P:problem:kreska pseudotaktowa	!	!	!	!	!	!	!	!	!
8C/L	.	2g/	2ee\	.	.	.	.	.	.	2r	.	.
8BB-/	.	.	.	.	.	.	.	.	.	.	.	.
8AA/	.	.	.	.	.	.	.	.	.	.	.	.
8GG/J	.	.	.	.	.	.	.	.	.	.	.	.
*custos:FF	*	*	*custos:cc	*	*	*	*	*	*	*	*	*
!LO:LB:g=original	!	!	!LO:LB:g=original	!	!	!	!	!	!	!	!	!
=28-	=28-	=28-	=28-	=28-	=28-	=28-	=28-	=28-	=28-	=28-	=28-	=28-
8FF/L	.	8a\	8cc\	.	.	.	.	.	.	4.ff\	cla-	cla-
8BB-/	.	4f/	4dd\	.	.	.	.	.	.	.	.	.
8AA/	6 X	.	.	.	.	.	.	.	.	.	.	.
8BB-/J	.	8f/	8dd\	.	.	.	.	.	.	8ff\	-mi-	-mi-
*	*	*	*	*	*	*	*	*	*	*2\right	*	*
8FF/L	.	8a\L	8cc\	.	.	.	.	.	.	2ff\	-to,	-to,
8BB-/	6 X	8dd\	4.f/	.	.	.	.	.	.	.	.	.
8AA/	.	8cc\	.	.	.	.	.	.	.	.	.	.
!LO:TX:t=P:problem:kreska pseudotaktowa	!	!LO:TX:t=P:problem:kreska pseudotaktowa	!	!	!	!	!	!	!	!	!	!
8BB-/J	.	8dd\J	.	.	.	.	.	.	.	.	.	.
*	*	*custos:ee	*	*	*	*	*	*	*	*custos:cc	*	*
!	!	!LO:LB:g=original	!	!	!	!	!	!	!	!LO:LB:g=original	!	!
=29-	=29-	=29-	=29-	=29-	=29-	=29-	=29-	=29-	=29-	=29-	=29-	=29-
*	*	*2\right	*	*	*	*	*	*	*	*	*	*
!	!	!LO:TX:t=P:problem:all\right:global	!	!	!	!	!	!	!	!	!	!
8C/L	.	2ee\	2g/	.	.	.	.	.	.	4r	.	.
8C/	.	.	.	.	.	.	.	.	.	.	.	.
8C/	.	.	.	.	.	.	.	.	.	4cc\	non	non,
8C/J	.	.	.	.	.	.	.	.	.	.	.	.
8D/L	.	2a\	2dd\	.	.	.	.	.	.	4f/	non,	non,
8D/	.	.	.	.	.	.	.	.	.	.	.	.
!	!	!	!	!	!	!	!	!	!	!LO:TX:t=P:problem:kreska pseudotaktowa	!	!
8D/	.	.	.	.	.	.	.	.	.	4ff\	non	non,
8D/J	.	.	.	.	.	.	.	.	.	.	.	.
=30-	=30-	=30-	=30-	=30-	=30-	=30-	=30-	=30-	=30-	=30-	=30-	=30-
8G\L	7 X	4b-\	2g/	00r	.	.	00r	.	.	4b-\	non,	non
8G\	.	.	.	.	.	.	.	.	.	.	.	.
*	*	*	*	*	*	*	*	*	*	*2\left	*	*
8G\	6 X	2cc\	.	.	.	.	.	.	.	2ee-X\	.	.
8G\J	.	.	.	.	.	.	.	.	.	.	.	.
!	!	!	!LO:TX:t=P:problem:kreska pseudotaktowa	!	!	!	!	!	!	!	!	!
8F\L	7 X	.	2a\	.	.	.	.	.	.	.	.	.
8F\	.	.	.	.	.	.	.	.	.	.	.	.
!	!	!LO:TX:t=P:problem:kreska pseudotaktowa	!	!	!	!	!	!	!	!LO:TX:t=P:problem:kreska pseudotaktowa	!	!
8F\	6 X	4f/	.	.	.	.	.	.	.	[>4dd\	di-	di-
8F\J	.	.	.	.	.	.	.	.	.	.	.	.
=31-	=31-	=31-	=31-	=31-	=31-	=31-	=31-	=31-	=31-	=31-	=31-	=31-
8E-X\L	7 X	4g/	4b-\	.	.	.	.	.	.	4dd]	.	.
8E-\	.	.	.	.	.	.	.	.	.	.	.	.
8E-\	6 X	4e-X/	4g/	.	.	.	.	.	.	2cc\	-mit-	-mit-
8E-\J	.	.	.	.	.	.	.	.	.	.	.	.
8D\L	7 X	4f/	4a\	.	.	.	.	.	.	.	.	.
8D\	.	.	.	.	.	.	.	.	.	.	.	.
8D\	6 X	4d/	4f/	.	.	.	.	.	.	2b-\	-tam	-tam
8D\J	.	.	.	.	.	.	.	.	.	.	.	.
=32-	=32-	=32-	=32-	=32-	=32-	=32-	=32-	=32-	=32-	=32-	=32-	=32-
8C/L	7 X	4e-X/	4g/	.	.	.	.	.	.	.	.	.
8C/	.	.	.	.	.	.	.	.	.	.	.	.
8C/	6 X	4c/	4e-X/	.	.	.	.	.	.	2a-X\	te	te
8C/J	.	.	.	.	.	.	.	.	.	.	.	.
8BB-/L	7 X	4d/	4f/	.	.	.	.	.	.	.	.	.
8BB-/	.	.	.	.	.	.	.	.	.	.	.	.
!	!	!LO:TX:t=P:problem:kreska pseudotaktowa	!	!	!	!	!	!	!	!	!	!
8BB-/	6 X	[<4g/	4d/	.	.	.	.	.	.	8g\L	o-	o-
!LO:TX:t=P:problem:kreska pseudotaktowa	!	!	!	!	!	!	!	!	!	!	!	!
8BB-/J	.	.	.	.	.	.	.	.	.	16a-\L	.	.
!	!	!	!	!	!	!	!	!	!	!LO:TX:t=P:problem:kreska pseudotaktowa	!	!
.	.	.	.	.	.	.	.	.	.	16b-\JJ	.	.
*custos:AA	*	*	*	*	*	*	*	*	*	*	*	*
!LO:LB:g=original	!	!	!	!	!	!	!	!	!	!	!	!
=33-	=33-	=33-	=33-	=33-	=33-	=33-	=33-	=33-	=33-	=33-	=33-	=33-
8AA/L	7 X	4g/]	2a\	.	.	.	.	.	.	2cc\	-ran-	-ran-
8AA/	.	.	.	.	.	.	.	.	.	.	.	.
8AA/	6 X	4f/	.	.	.	.	.	.	.	.	.	.
8AA/J	.	.	.	.	.	.	.	.	.	.	.	.
!	!	!	!	!	!	!	!	!	!	!LO:MO:mod=!null:null	!	!
!	!	!	!LO:TX:t=P:problem:kreska pseudotaktowa	!	!	!	!	!	!	!LO:N:acc=#	!	!
4GG/	# X	4d/	2g/	.	.	.	.	.	.	4bn\	-do	-do
!LO:TX:t=P:problem:kreska pseudotaktowa	!	!LO:TX:t=P:problem:kreska pseudotaktowa	!	!	!	!	!	!	!	!	!	!
4EE/	6 X	4e/	.	.	.	.	.	.	.	(>8g\L	ni-	ni-
.	.	.	.	.	.	.	.	.	.	16a\L	.	.
!	!	!	!	!	!	!	!	!	!	!LO:TX:t=P:problem:kreska pseudotaktowa	!	!
.	.	.	.	.	.	.	.	.	.	16b\JJ)	.	.
=34-	=34-	=34-	=34-	=34-	=34-	=34-	=34-	=34-	=34-	=34-	=34-	=34-
!	!	!LO:TX:t=P:problem:all\left:global	!	!	!	!	!	!	!	!	!	!
4FF/	.	4a\	4f/	00r	.	.	00r	.	.	8.a\L	-ſi	-ſi
!	!	!	!	!	!	!	!	!	!	!LO:MO:mod=!null:null	!	!
!	!	!	!	!	!	!	!	!	!	!LO:N:acc=#	!	!
.	.	.	.	.	.	.	.	.	.	(>32bn\LL	.	.
.	.	.	.	.	.	.	.	.	.	32cc\JJJ)	.	.
!	!	!	!	!	!	!	!	!	!	!LO:MO:mod=!null:null	!	!
!	!	!	!	!	!	!	!	!	!	!LO:N:acc=#	!	!
4GG/	# X	4g/	4dd\	.	.	.	.	.	.	8.bn\L	di-	di-
.	.	.	.	.	.	.	.	.	.	(>32cc\LL	.	.
.	.	.	.	.	.	.	.	.	.	32dd\JJJ)	.	.
4AA/	.	4e/	4a\	.	.	.	.	.	.	(8cc\L	-mi-	-mi-
.	.	.	.	.	.	.	.	.	.	8dd\J)	.	.
!LO:TX:t=P:problem:kreska pseudotaktowa	!	!LO:TX:t=P:problem:kreska pseudotaktowa	!LO:TX:t=P:problem:kreska pseudotaktowa	!	!	!	!	!	!	!	!	!
!LO:MO:mod=!null:null	!	!LO:MO:mod=!null:null	!	!	!	!	!	!	!	!	!	!
!LO:N:acc=#	!	!LO:N:acc=#	!	!	!	!	!	!	!	!	!	!
4BBn/	6 X	4bn\	4g/	.	.	.	.	.	.	8dd\	-ſe-	-ſe-
!	!	!	!	!	!	!	!	!	!	!LO:TX:t=P:problem:kreska pseudotaktowa	!	!
.	.	.	.	.	.	.	.	.	.	8ee\	-ris	-ris
*	*	*	*	*	*	*	*	*	*	*custos:ee	*	*
!	!	!	!	!	!	!	!	!	!	!LO:LB:g=original	!	!
=35-	=35-	=35-	=35-	=35-	=35-	=35-	=35-	=35-	=35-	=35-	=35-	=35-
8C/L	.	4g/	4g/	.	.	.	.	.	.	4ee\	me	me
8C/	.	.	.	.	.	.	.	.	.	.	.	.
8AA/	6 X	4a\	4cc\	.	.	.	.	.	.	8r	.	.
8AA/J	.	.	.	.	.	.	.	.	.	8ff\	ex	ex
8BB-/L	.	2d/	2g/	.	.	.	.	.	.	4.dd\	aú-	au-
8BB-/	.	.	.	.	.	.	.	.	.	.	.	.
!LO:MO:mod=!null:null	!	!	!	!	!	!	!	!	!	!	!	!
!LO:N:acc=#	!	!	!	!	!	!	!	!	!	!	!	!
8BBn/	.	.	.	.	.	.	.	.	.	.	.	.
!	!	!	!	!	!	!	!	!	!	!LO:TX:t=P:problem:kreska pseudotaktowa	!	!
8BB/J	6 X	.	.	.	.	.	.	.	.	8g/	-di-	-di-
=36-	=36-	=36-	=36-	=36-	=36-	=36-	=36-	=36-	=36-	=36-	=36-	=36-
8C/L	.	2g/	8e/	.	.	.	.	.	.	2g/	-en-	-en-
8BB-y/	.	.	4f/	.	.	.	.	.	.	.	.	.
8C/	.	.	.	.	.	.	.	.	.	.	.	.
8CC/J	.	.	8e/	.	.	.	.	.	.	.	.	.
!	!	!	!LO:TX:t=P:problem:mixed beam	!	!	!	!	!	!	!	!	!
8FF/L	.	8a\L	8f/L	.	.	.	.	.	.	4f/	-do	-do.
8FF/	.	8a\	8cc\	.	.	.	.	.	.	.	.	.
8AA/	.	8a\	8cc\	.	.	.	.	.	.	4r	.	.
!LO:TX:t=P:problem:kreska pseudotaktowa	!	!LO:TX:t=P:problem:kreska pseudotaktowa	!LO:TX:t=P:problem:kreska pseudotaktowa	!	!	!	!	!	!	!	!	!
8AA/J	6 X	8a\J	8cc\J	.	.	.	.	.	.	.	.	.
*	*	*custos:f	*custos:dd	*	*	*	*	*	*	*	*	*
!	!	!LO:LB:g=original	!LO:LB:g=original	!	!	!	!	!	!	!	!	!
=37-	=37-	=37-	=37-	=37-	=37-	=37-	=37-	=37-	=37-	=37-	=37-	=37-
8BB-/L	.	8f/L	8dd\L	.	.	.	.	.	.	0r	.	.
8BB-/	.	8f/	8dd\	.	.	.	.	.	.	.	.	.
8C/	.	8g/	8ee\	.	.	.	.	.	.	.	.	.
8C/J	.	8cc/J	8ee\J	.	.	.	.	.	.	.	.	.
8D/L	.	8a\L	8ff\L	.	.	.	.	.	.	.	.	.
8D/	.	8a\	8ff\	.	.	.	.	.	.	.	.	.
8AA/	.	8a\	8cc\	.	.	.	.	.	.	.	.	.
!LO:TX:t=P:problem:kreska pseudotaktowa	!	!	!LO:TX:t=P:problem:kreska pseudotaktowa	!	!	!	!	!	!	!	!	!
8AA/J	.	8a\J	8cc\J	.	.	.	.	.	.	.	.	.
*custos:BB-	*	*	*	*	*	*	*	*	*	*	*	*
!LO:LB:g=original	!	!	!	!	!	!	!	!	!	!	!	!
=38-	=38-	=38-	=38-	=38-	=38-	=38-	=38-	=38-	=38-	=38-	=38-	=38-
8BB-/L	.	8.f/L	8dd\L	00r	.	.	00r	.	.	.	.	.
8BB-/	.	.	8dd\	.	.	.	.	.	.	.	.	.
.	.	16a/Jk	.	.	.	.	.	.	.	.	.	.
8C/	.	8g\L	8ee\	.	.	.	.	.	.	.	.	.
8C/J	.	8cc\J	8ee\J	.	.	.	.	.	.	.	.	.
4FF/	.	4a\	4ff\	.	.	.	.	.	.	.	.	.
!LO:TX:t=P:problem:kreska pseudotaktowa	!	!	!LO:TX:t=P:problem:kreska pseudotaktowa	!	!	!	!	!	!	!	!	!
4r	.	4r	4r	.	.	.	.	.	.	.	.	.
=39-	=39-	=39-	=39-	=39-	=39-	=39-	=39-	=39-	=39-	=39-	=39-	=39-
2FF#X/	6 X	2a\	2dd\	.	.	.	.	.	.	4r	.	.
.	.	.	.	.	.	.	.	.	.	8a\	mi-	Mi-
.	.	.	.	.	.	.	.	.	.	8a\	-ſe-	-ſe-
!	!	!	!LO:TX:t=P:problem:kreska pseudotaktowa	!	!	!	!	!	!	!	!	!
2FF#/	5 X	2f#X/	2a\	.	.	.	.	.	.	4cc\	-re-	-re-
.	.	.	.	.	.	.	.	.	.	4cc\	-re	-re,
=40-	=40-	=40-	=40-	=40-	=40-	=40-	=40-	=40-	=40-	=40-	=40-	=40-
4GG/	.	4d/	4b-\	.	.	.	.	.	.	4r	.	.
2C/	- X	4.e-X/	2cc\	.	.	.	.	.	.	2ee-X\	ah!	ah!
.	.	8fny/	.	.	.	.	.	.	.	.	.	.
!	!	!LO:TX:t=P:problem:kreska pseudotaktowa	!LO:TX:t=P:problem:kreska pseudotaktowa	!	!	!	!	!	!	!	!	!
4GG/	.	4g/	4b-\	.	.	.	.	.	.	8dd\	mi-	Mi-
!	!	!	!	!	!	!	!	!	!	!LO:TX:t=P:problem:kreska pseudotaktowa	!	!
.	.	.	.	.	.	.	.	.	.	8cc\	-ſe-	-ſe-
=41-	=41-	=41-	=41-	=41-	=41-	=41-	=41-	=41-	=41-	=41-	=41-	=41-
*	*	*2\left	*	*	*	*	*	*	*	*	*	*
2G\	.	2dd\	2g/	.	.	.	.	.	.	4b-\	-re-	-re-
.	.	.	.	.	.	.	.	.	.	4b-\	-re	-re
!LO:SIC:v:s=2D/	!	!	!	!	!	!	!	!	!	!	!	!
2D#X/	.	4.dd\	4.a\	.	.	.	.	.	.	4.f#X/	me-	me-
!	!	!LO:TX:t=P:problem:kreska pseudotaktowa	!LO:TX:t=P:problem:kreska pseudotaktowa	!	!	!	!	!	!	!LO:TX:t=P:problem:kreska pseudotaktowa	!	!
.	.	8a\	8dd\	.	.	.	.	.	.	8f#/	-i	-i,
=42-	=42-	=42-	=42-	=42-	=42-	=42-	=42-	=42-	=42-	=42-	=42-	=42-
4E-X\	7 5	2g/	4dd\	00r	.	.	00r	.	.	4.g/	Do-	Do-
4En\	6\ 3	.	8.cc#X\L	.	.	.	.	.	.	.	.	.
.	X 4	.	.	.	.	.	.	.	.	8a\	-mi-	-mi-
.	.	.	16dd\Jk	.	.	.	.	.	.	.	.	.
!	!	!	!LO:TX:t=P:problem:kreska pseudotaktowa	!	!	!	!	!	!	!	!	!
2Dny/	# X	2f#X/	2dd\	.	.	.	.	.	.	4a\	-ne	-ne!
!	!	!	!	!	!	!	!	!	!	!LO:TX:t=P:problem:kreska pseudotaktowa	!	!
.	.	.	.	.	.	.	.	.	.	4r	.	.
=43-	=43-	=43-	=43-	=43-	=43-	=43-	=43-	=43-	=43-	=43-	=43-	=43-
2C#X/	.	2cc#X\	2ee\	.	.	.	.	.	.	4a\	fi-	Fi-
.	.	.	.	.	.	.	.	.	.	8a\	-li-	-li-
.	.	.	.	.	.	.	.	.	.	8a\	-a	-a
!	!	!LO:TX:t=P:problem:kreska pseudotaktowa	!LO:TX:t=P:problem:kreska pseudotaktowa	!	!	!	!	!	!	!	!	!
2D/	# X	2a\	2dd\	.	.	.	.	.	.	4a\	me-	me-
!	!	!	!	!	!	!	!	!	!	!LO:TX:t=P:problem:kreska pseudotaktowa	!	!
.	.	.	.	.	.	.	.	.	.	4a\	-a	-a
=44-	=44-	=44-	=44-	=44-	=44-	=44-	=44-	=44-	=44-	=44-	=44-	=44-
4E\	6 X	4e/	4g/	.	.	.	.	.	.	8cc\	ma-	ma-
.	.	.	.	.	.	.	.	.	.	8g\	-le	-le,
4F#X\	6 X	4a\	4f#X/	.	.	.	.	.	.	8dd\	ma-	ma-
.	.	.	.	.	.	.	.	.	.	8a\	-le,	-le,
!LO:TX:t=P:problem:kreska pseudotaktowa	!	!LO:TX:t=P:problem:kreska pseudotaktowa	!	!	!	!	!	!	!	!	!	!
2G\	.	2g/	4dd\	.	.	.	.	.	.	8b-\	ma-	ma-
.	.	.	.	.	.	.	.	.	.	8g/	-le,	-le,
!	!	!	!LO:TX:t=P:problem:kreska pseudotaktowa	!	!	!	!	!	!	!LO:TX:t=P:problem:nieczytelny zapis tekstu	!	!
.	.	.	4b-\	.	.	.	.	.	.	8.dd\	à	a
!	!	!	!	!	!	!	!	!	!	!LO:TX:t=P:problem:kreska pseudotaktowa	!	!
.	.	.	.	.	.	.	.	.	.	16ff\	.	.
*	*	*custos:g	*custos:cc	*	*	*	*	*	*	*	*	*
!	!	!LO:LB:g=original	!LO:LB:g=original	!	!	!	!	!	!	!	!	!
=45-	=45-	=45-	=45-	=45-	=45-	=45-	=45-	=45-	=45-	=45-	=45-	=45-
4C/	-7 X	4g/	4cc\	.	.	.	.	.	.	8ee-X\	Dae-	Dae-
.	.	.	.	.	.	.	.	.	.	8dd\	-mo-	-mo-
4D/	X #	2c/	4f#X/	.	.	.	.	.	.	8.cc\	-nio	-nio
.	.	.	.	.	.	.	.	.	.	(>32b-\LLL	ve-	ve-
.	.	.	.	.	.	.	.	.	.	32a\JJJ)	.	.
!	!	!	!	!	!	!	!	!	!	!LO:TX:t=P:problem:kreska pseudotaktowa	!	!
4E-X\	6 x	.	4g/	.	.	.	.	.	.	[<2g/	-xa-	-xa-
!	!	!	!LO:TX:t=P:problem:kreska pseudotaktowa	!	!	!	!	!	!	!	!	!
4BB-/	6 5	4d/	4b-\	.	.	.	.	.	.	.	.	.
=46-	=46-	=46-	=46-	=46-	=46-	=46-	=46-	=46-	=46-	=46-	=46-	=46-
4C/	6 5	4.g/	4ee-X\	1r	.	.	1r	.	.	4.g/]	.	.
4D/	4 x	.	4a\	.	.	.	.	.	.	.	.	.
.	# x	8f#X/	.	.	.	.	.	.	.	(>16a\LL	.	.
.	.	.	.	.	.	.	.	.	.	16b-\JJ)	.	.
!	!	!	!LO:MO:mod=!null:null	!	!	!	!	!	!	!	!	!
!	!	!	!LO:N:acc=#	!	!	!	!	!	!	!	!	!
2GG/	# x	2g/	2bn\	.	.	.	.	.	.	2g/	-túr	-tur.
*custos:GG	*	*	*	*	*	*	*	*	*	*	*	*
!LO:PB:g=original	!	!	!	!	!	!	!	!	!	!	!	!
=47||	=47||	=47||	=47||	=47||	=47||	=47||	=47||	=47||	=47||	=47||	=47||	=47||
!LO:MO:mod=*null:null	!	!	!	!	!	!	!LO:MO:mod=*null:null	!	!	!	!	!
*M4/4	*	*	*	*	*	*	*M4/4	*	*	*	*	*
*met(C)	*	*	*	*	*	*	*met(C)	*	*	*	*	*
!	!	!	!	!LO:TX:b:i:t=C.2.:mod=	!	!	!	!	!	!LO:TX:b:t=C.2.:mod=	!	!
!	!	!	!	!LO:TX:a:t=7:mod=	!	!	!	!	!	!LO:TX:a:t=7:mod=	!	!
2.GG/	.	2.g/	2.b-\	00r	.	.	4r	.	.	00r	.	.
.	.	.	.	.	.	.	4dd\	Ma-	Ma-	.	.	.
.	.	.	.	.	.	.	8b-\	-gis-	-gis-	.	.	.
.	.	.	.	.	.	.	8b-\	-ter	-ter	.	.	.
4AA/	6\ X	4c/	4a\	.	.	.	8.cc\	ſu-	ſu-	.	.	.
!	!	!	!	!	!	!	!LO:TX:t=P:problem:kreska pseudotaktowa	!	!	!	!	!
.	.	.	.	.	.	.	16f#X/	-a	-a-	.	.	.
=48-	=48-	=48-	=48-	=48-	=48-	=48-	=48-	=48-	=48-	=48-	=48-	=48-
!	!	!	!LO:MO:mod=!null:null	!	!	!	!	!	!	!	!	!
!	!	!	!LO:N:acc=#	!	!	!	!	!	!	!	!	!
1GG	.	1d	1bn	.	.	.	8.g/	riſ-	-viſ-	.	.	.
.	.	.	.	.	.	.	16g/	-si-	-si-	.	.	.
.	.	.	.	.	.	.	4g/	-me	-me	.	.	.
.	.	.	.	.	.	.	4r	.	.	.	.	.
!	!	!	!	!	!	!	!LO:TX:t=P:problem:kreska pseudotaktowa	!	!	!	!	!
.	.	.	.	.	.	.	4g/	qui	qui	.	.	.
=49-	=49-	=49-	=49-	=49-	=49-	=49-	=49-	=49-	=49-	=49-	=49-	=49-
!	!	!	!LO:MO:mod=!null:null	!	!	!	!	!	!	!	!	!
!	!	!	!LO:N:acc=#	!	!	!	!	!	!	!	!	!
2G\	# X	4.d/	4bn\	.	.	.	8.g\	es	es	.	.	.
.	.	.	.	.	.	.	16g\	o-	o-	.	.	.
.	.	.	4dd\	.	.	.	8a\	-pi-	-pi-	.	.	.
!	!	!	!	!	!	!	!LO:MO:mod=!null:null	!	!	!	!	!
!	!	!	!	!	!	!	!LO:N:acc=#	!	!	!	!	!
.	.	8g/	.	.	.	.	8bn\	-tú-	-tu-	.	.	.
!LO:TX:t=P:problem:kreska pseudotaktowa	!	!LO:TX:t=P:problem:kreska pseudotaktowa	!LO:TX:t=P:problem:kreska pseudotaktowa	!	!	!	!	!	!	!	!	!
2E\	6 X	2g/	2ee\	.	.	.	4cc\	-la-	-la-	.	.	.
.	.	.	.	.	.	.	4cc\	-tor	-tor	.	.	.
=50-	=50-	=50-	=50-	=50-	=50-	=50-	=50-	=50-	=50-	=50-	=50-	=50-
1E	6 X	1e	2cc\	.	.	.	8r	.	.	.	.	.
.	.	.	.	.	.	.	8g/	in	in	.	.	.
.	.	.	.	.	.	.	8g/	op-	op-	.	.	.
.	5 X	.	.	.	.	.	8a\	-por-	-por-	.	.	.
.	.	.	2g/	.	.	.	4.b-y\	-tú-	-tu-	.	.	.
!	!	!	!	!	!	!	!LO:TX:t=P:problem:kreska pseudotaktowa	!	!	!	!	!
.	.	.	.	.	.	.	8cc\	-ni-	-ni-	.	.	.
*	*	*	*	*	*	*	*custos:a	*	*	*	*	*
!	!	!	!	!	!	!	!LO:LB:g=original	!	!	!	!	!
=51-	=51-	=51-	=51-	=51-	=51-	=51-	=51-	=51-	=51-	=51-	=51-	=51-
1F	.	1c	1f	0r	.	.	4a\	-ta-	-ta-	0r	.	.
.	.	.	.	.	.	.	4a\	-te	-te	.	.	.
.	.	.	.	.	.	.	8r	.	.	.	.	.
.	.	.	.	.	.	.	8a\	di-	di-	.	.	.
.	.	.	.	.	.	.	8cc\	-mit-	-mit-	.	.	.
.	.	.	.	.	.	.	16a\	-te	-te,	.	.	.
!	!	!	!	!	!	!	!LO:TX:t=P:problem:kreska pseudotaktowa	!	!	!	!	!
.	.	.	.	.	.	.	16cc\	di-	di-	.	.	.
=52-	=52-	=52-	=52-	=52-	=52-	=52-	=52-	=52-	=52-	=52-	=52-	=52-
2F\	.	2f/	4.cc\	.	.	.	4a\	-mit-	-mit-	.	.	.
.	.	.	.	.	.	.	8f/	-te	-te,	.	.	.
.	.	.	8a\	.	.	.	8cc\	di-	di-	.	.	.
4BB-/	6 X	8g\L	8b-\L	.	.	.	8dd\	-mit-	-mit-	.	.	.
.	.	8b-\	8dd\	.	.	.	8g/	-te	-te	.	.	.
4C/	.	8.g\	8.ee\	.	.	.	4g/	e-	e-	.	.	.
!	!	!LO:TX:t=P:problem:kreska pseudotaktowa	!	!	!	!	!	!	!	!	!	!
.	.	16a\Jk	16ff\Jk	.	.	.	.	.	.	.	.	.
=53-	=53-	=53-	=53-	=53-	=53-	=53-	=53-	=53-	=53-	=53-	=53-	=53-
4FF/	.	4a\	8ff\L	1r	.	.	4f/	-am.	-am.	1r	.	.
.	.	.	8ff\	.	.	.	.	.	.	.	.	.
4C/	.	8.g\L	8.ee\	.	.	.	4r	.	.	.	.	.
.	.	16a\Jk	16ff\Jk	.	.	.	.	.	.	.	.	.
4FF/	.	4a\	4ff\	.	.	.	2r	.	.	.	.	.
4r	.	4r	4r	.	.	.	.	.	.	.	.	.
!	!	!LO:LB:g=original	!LO:LB:g=original	!	!	!	!	!	!	!	!	!
=54||	=54||	=54||	=54||	=54||	=54||	=54||	=54||	=54||	=54||	=54||	=54||	=54||
!LO:MO:null:mod=*M2/1	!	!LO:MO:null:mod=*M2/1	!LO:MO:null:mod=*M2/1	!	!	!	!LO:MO:null:mod=*M2/1	!	!	!LO:MO:null:mod=*M2/1	!	!
*	*	*	*	*M2/1	*	*	*	*	*	*	*	*
*	*	*	*	*met(C)	*	*	*	*	*	*	*	*
!!LO:TX:t=P:problem:zmiana metrum nieoznaczona w źródle
!	!	!	!	!	!	!	!LO:TX:b:i:t=Baſso.:mod=	!	!	!	!	!
!	!	!	!	!	!	!	!LO:TX:a:t=6:mod=	!	!	!LO:TX:b:t=B.:mod=	!	!
1C	.	1e	1g	4r	.	.	00r	.	.	00r	.	.
.	.	.	.	8E\	Non	Non	.	.	.	.	.	.
.	.	.	.	8G\	ſúm	ſum	.	.	.	.	.	.
.	.	.	.	4c\	miſ-	miſ-	.	.	.	.	.	.
!	!	!	!	!LO:TX:t=P:problem:kreska pseudotaktowa	!	!	!	!	!	!	!	!
.	.	.	.	4c\	-s(us)	-sus	.	.	.	.	.	.
1F#X	6 X	1d	1f#X	4A\	ni-	ni-	.	.	.	.	.	.
.	.	.	.	8A\	-ſi	-ſi	.	.	.	.	.	.
.	.	.	.	8A\	ad	ad	.	.	.	.	.	.
.	.	.	.	4.A\	o-	o-	.	.	.	.	.	.
!	!	!	!	!LO:TX:t=P:problem:kreska pseudotaktowa	!	!	!	!	!	!	!	!
!	!	!	!	!LO:MO:mod=!null:null	!	!	!	!	!	!	!	!
!	!	!	!	!LO:N:acc=#	!	!	!	!	!	!	!	!
.	.	.	.	8Bn\	-ves	-ves	.	.	.	.	.	.
*	*	*	*	*custos:B	*	*	*	*	*	*	*	*
!	!	!	!	!LO:LB:g=original	!	!	!	!	!	!	!	!
=55-	=55-	=55-	=55-	=55-	=55-	=55-	=55-	=55-	=55-	=55-	=55-	=55-
2G\	# X	1d	2g/	8.Bny\	per-	per-	.	.	.	.	.	.
.	.	.	.	16B\	-di-	-di-	.	.	.	.	.	.
.	.	.	.	4B\	-tas,	-tas,	.	.	.	.	.	.
!	!	!	!LO:MO:mod=!null:null	!	!	!	!	!	!	!	!	!
!	!	!	!LO:N:acc=#	!	!	!	!	!	!	!	!	!
2GG/	.	.	2bn\	4G\	ni-	ni-	.	.	.	.	.	.
.	.	.	.	8G\	-ſi	-ſi	.	.	.	.	.	.
!	!	!	!	!LO:TX:t=P:problem:kreska pseudotaktowa	!	!	!	!	!	!	!	!
.	.	.	.	8D/	ad	ad	.	.	.	.	.	.
2EE/	6 X	2g/	2cc#X\	4.E\	o-	o-	.	.	.	.	.	.
.	.	.	.	8G\	-ves	-ves	.	.	.	.	.	.
2DD/	.	2a\	2dd\	8.F#X\	per-	per-	.	.	.	.	.	.
.	.	.	.	16F#\	-di-	-di-	.	.	.	.	.	.
!	!	!	!	!LO:TX:t=P:problem:kreska pseudotaktowa	!	!	!	!	!	!	!	!
.	.	.	.	4F#\	-tas	-tas	.	.	.	.	.	.
!LO:LB:g=original	!	!	!	!	!	!	!	!	!	!	!	!
=56-	=56-	=56-	=56-	=56-	=56-	=56-	=56-	=56-	=56-	=56-	=56-	=56-
1C#X	6 5	1e	4.a\	4.A\	do-	do-	0r	.	.	0r	.	.
.	.	.	8a\	8c#X\	-m(us)	-mus	.	.	.	.	.	.
.	.	.	[2g/	4.A\	I-	I-	.	.	.	.	.	.
!	!	!	!	!LO:TX:t=P:problem:kreska pseudotaktowa	!	!	!	!	!	!	!	!
!	!	!	!	!LO:MO:mod=!null:null	!	!	!	!	!	!	!	!
!	!	!	!	!LO:N:acc=#	!	!	!	!	!	!	!	!
.	.	.	.	8Bn\	-srā-	-sra-	.	.	.	.	.	.
2D/	4 X	1d	4g/]	(>4.A\	-ē-	-e-	.	.	.	.	.	.
.	# X	.	4f#X/	.	.	.	.	.	.	.	.	.
.	.	.	.	8G\)	.	.	.	.	.	.	.	.
2GG/	# X	.	2g/	2G\	-lis.	-lis.	.	.	.	.	.	.
*	*	*custos:b-	*	*	*	*	*	*	*	*	*	*
!	!	!LO:PB:g=original	!	!	!	!	!	!	!	!	!	!
=57-	=57-	=57-	=57-	=57-	=57-	=57-	=57-	=57-	=57-	=57-	=57-	=57-
!LO:MO:mod=*M3/1	!	!LO:MO:mod=*M3/1	!LO:MO:mod=*M3/1	!	!	!	!LO:MO:mod=*M3/1	!	!	!LO:MO:mod=*M3/1	!	!
*M3/2	*	*M3/2	*M3/2	*M3/1	*	*	*M3/2	*	*	*M3/2	*	*
!	!	!	!	!	!	!	!	!	!	!LO:TX:a:t=8:mod=	!	!
2.GG/	.	2.b-\	2.dd\	00.r	.	.	00.r	.	.	00.r	.	.
4AA/	.	4a\	4ccny\	.	.	.	.	.	.	.	.	.
!	!	!LO:TX:t=P:problem:kreska pseudotaktowa	!	!	!	!	!	!	!	!	!	!
4BB-/	6 X	2g/	2b-\	.	.	.	.	.	.	.	.	.
4Cny/	.	.	.	.	.	.	.	.	.	.	.	.
1.D	# X	2.f#X/	2.a\	.	.	.	.	.	.	.	.	.
.	.	4f#/	4a\	.	.	.	.	.	.	.	.	.
!	!	!LO:TX:t=P:problem:kreska pseudotaktowa	!	!	!	!	!	!	!	!	!	!
.	.	2f#/	2a\	.	.	.	.	.	.	.	.	.
=58-	=58-	=58-	=58-	=58-	=58-	=58-	=58-	=58-	=58-	=58-	=58-	=58-
2.BB-/	.	2.dd\	2.ff\	.	.	.	.	.	.	.	.	.
4C/	- X	4cc\	4ee-X\	.	.	.	.	.	.	.	.	.
4D/	6 X	2b-\	2dd\	.	.	.	.	.	.	.	.	.
4E-X\	6 5	.	.	.	.	.	.	.	.	.	.	.
1.Fny	.	2.a\	2.cc\	.	.	.	.	.	.	.	.	.
.	.	4a\	4cc\	.	.	.	.	.	.	.	.	.
!	!	!LO:TX:t=P:problem:kreska pseudotaktowa	!LO:TX:t=P:problem:kreska pseudotaktowa	!	!	!	!	!	!	!	!	!
.	.	2a\	2cc\	.	.	.	.	.	.	.	.	.
=59-	=59-	=59-	=59-	=59-	=59-	=59-	=59-	=59-	=59-	=59-	=59-	=59-
2F\	.	2.cc\	2.a\	00.r	.	.	00.r	.	.	00.r	.	.
2Eny\	.	.	.	.	.	.	.	.	.	.	.	.
.	.	4g/	8b-\L	.	.	.	.	.	.	.	.	.
.	.	.	8cc\J	.	.	.	.	.	.	.	.	.
2D/	# X	2f#X/	4.dd\	.	.	.	.	.	.	.	.	.
!	!	!	!LO:TX:t=P:problem:kreska pseudotaktowa	!	!	!	!	!	!	!	!	!
.	.	.	8cc\	.	.	.	.	.	.	.	.	.
2E-X\	.	2g/	2.b-\	.	.	.	.	.	.	.	.	.
2D\	# X	2a\	.	.	.	.	.	.	.	.	.	.
.	.	.	8cc\L	.	.	.	.	.	.	.	.	.
.	.	.	8dd\J	.	.	.	.	.	.	.	.	.
!	!	!	!LO:TX:t=P:problem:kreska pseudotaktowa	!	!	!	!	!	!	!	!	!
2C/	- 7	4b-\	2ee-X\	.	.	.	.	.	.	.	.	.
.	.	4cc\	.	.	.	.	.	.	.	.	.	.
=60-	=60-	=60-	=60-	=60-	=60-	=60-	=60-	=60-	=60-	=60-	=60-	=60-
2D/	4 X	2g/	2b-\	.	.	.	.	.	.	.	.	.
2.DD/	4:# X	2g/	2.a\	.	.	.	.	.	.	.	.	.
.	.	2f#X/	.	.	.	.	.	.	.	.	.	.
4DD/	.	.	4g/	.	.	.	.	.	.	.	.	.
1.GG	# X	1.g	1.g	.	.	.	.	.	.	.	.	.
!LO:LB:g=original	!	!	!LO:PB:g=original	!	!	!	!	!	!	!LO:LB:g=original	!	!
=61||	=61||	=61||	=61||	=61||	=61||	=61||	=61||	=61||	=61||	=61||	=61||	=61||
*M2/1	*	*M2/1	*M2/1	*M2/1	*	*	*M2/1	*	*	*M2/1	*	*
*met(C)	*	*met(O|)	*met(C)	*met(C)	*	*	*met(C)	*	*	*met(C)	*	*
!	!	!	!	!	!	!	!	!	!	!LO:MO:mod=!null:null	!	!
!	!	!	!	!LO:TX:a:t=5.:mod=	!	!	!LO:TX:b:i:t=C.:mod=	!	!	!LO:N:acc=#	!	!
1G	# X	1d	1g	00r	.	.	00r	.	.	8.bn\	Do-	Do-
.	.	.	.	.	.	.	.	.	.	16b\	-mi-	-mi-
.	.	.	.	.	.	.	.	.	.	4b\	-ne	-ne
.	.	.	.	.	.	.	.	.	.	4b\	ad-	ad-
.	.	.	.	.	.	.	.	.	.	8b\	-jú-	-ju-
!	!	!	!	!	!	!	!	!	!	!LO:TX:t=P:problem:kreska pseudotaktowa	!	!
.	.	.	.	.	.	.	.	.	.	8cc\	-va	-va
1E	6 X	1e	2g/	.	.	.	.	.	.	4cc\	me	me
.	.	.	.	.	.	.	.	.	.	8cc\	et	et
.	.	.	.	.	.	.	.	.	.	8cc\	ex	ex
.	.	.	2g/	.	.	.	.	.	.	8cc\	po-	po-
.	.	.	.	.	.	.	.	.	.	8cc\	-tes-	-tes-
.	.	.	.	.	.	.	.	.	.	8cc\	-ta-	-ta-
.	.	.	.	.	.	.	.	.	.	16cc\	-te	-te
!	!	!	!	!	!	!	!	!	!	!LO:TX:t=P:problem:nieczytelny zapis tekstu	!	!
!	!	!	!	!	!	!	!	!	!	!LO:TX:t=P:problem:kreska pseudotaktowa	!	!
.	.	.	.	.	.	.	.	.	.	16cc\	Dae-	Dae-
!	!	!LO:LB:g=original	!	!	!	!	!	!	!	!	!	!
=62-	=62-	=62-	=62-	=62-	=62-	=62-	=62-	=62-	=62-	=62-	=62-	=62-
1F	.	2c/	2f/	.	.	.	.	.	.	8.a\	-mo-	-mo-
.	.	.	.	.	.	.	.	.	.	16a\	-ni-	-ni-
.	.	.	.	.	.	.	.	.	.	4a\	-j	-i
.	.	2f/	2a\	.	.	.	.	.	.	4ff\	fi-	fi-
.	.	.	.	.	.	.	.	.	.	8ff\	-li-	-li-
!	!	!	!	!	!	!	!	!	!	!LO:TX:t=P:problem:kreska pseudotaktowa	!	!
.	.	.	.	.	.	.	.	.	.	8ee\	-am	-am
2BB-/	.	2d/	2b-\	.	.	.	.	.	.	(>8dd\L	me-	me-
.	.	.	.	.	.	.	.	.	.	8cc\J)	.	.
.	.	.	.	.	.	.	.	.	.	(>8b-\L	-am	-am
.	.	.	.	.	.	.	.	.	.	8a\J)	.	.
2C/	4 X	4.e/	2g/	.	.	.	.	.	.	(>8a\L	e-	e-
.	.	.	.	.	.	.	.	.	.	16b-\L	.	.
.	.	.	.	.	.	.	.	.	.	16cc\JJ)	.	.
.	3 X	.	.	.	.	.	.	.	.	8.g/	-ri-	-ri-
.	.	8f/	.	.	.	.	.	.	.	.	.	.
!	!	!	!	!	!	!	!	!	!	!LO:TX:t=P:problem:kreska pseudotaktowa	!	!
.	.	.	.	.	.	.	.	.	.	16f/	.	.
=63-	=63-	=63-	=63-	=63-	=63-	=63-	=63-	=63-	=63-	=63-	=63-	=63-
1FF	.	1f	1a	1r	.	.	0r	.	.	2f/	-ge	-ge!
.	.	.	.	.	.	.	.	.	.	2r	.	.
!	!	!	!	!	!	!	!	!	!	!LO:TX:a:t=3:mod=	!	!
1D	.	1f	1a	4.A\	Non,	Non,	.	.	.	0r	.	.
.	.	.	.	(>16A\LL	non	non	.	.	.	.	.	.
.	.	.	.	16G\JJ)	.	.	.	.	.	.	.	.
.	.	.	.	8.F\	con-	con-	.	.	.	.	.	.
.	.	.	.	16F\	-ve-	-ve-	.	.	.	.	.	.
!	!	!	!	!LO:TX:t=P:problem:kreska pseudotaktowa	!	!	!	!	!	!	!	!
.	.	.	.	4F\	-nit	-nit	.	.	.	.	.	.
=64-	=64-	=64-	=64-	=64-	=64-	=64-	=64-	=64-	=64-	=64-	=64-	=64-
*	*	*	*2\right	*	*	*	*	*	*	*	*	*
2D/	.	2d/	2a\	8.F\	pa-	pa-	00r	.	.	.	.	.
.	.	.	.	16F\	-nem	-nem	.	.	.	.	.	.
.	.	.	.	8F\	li-	li-	.	.	.	.	.	.
.	.	.	.	8A\	-be-	-be-	.	.	.	.	.	.
2BB-/	.	2f/	2dd\	4B-\	-ro-	-ro-	.	.	.	.	.	.
.	.	.	.	8B-\	-rúm	-rum	.	.	.	.	.	.
!	!	!	!	!LO:TX:t=P:problem:kreska pseudotaktowa	!	!	!	!	!	!	!	!
.	.	.	.	8B-\	ca-	ca-	.	.	.	.	.	.
2BB-/	5 X	4b-\	2dd\	4F\	-tel-	-tel-	.	.	.	1r	.	.
.	.	4g/	.	8G\	-lis	-lis	.	.	.	.	.	.
.	6 X	.	.	8G\	ob-	ob-	.	.	.	.	.	.
!LO:TX:t=P:problem:kreska pseudotaktowa	!	!LO:TX:t=P:problem:kreska pseudotaktowa	!	!	!	!	!	!	!	!	!	!
2AA/	# X	2e/	2cc#X\	4.A\	-ji-	-ji-	.	.	.	.	.	.
!	!	!	!	!LO:TX:t=P:problem:kreska pseudotaktowa	!	!	!	!	!	!	!	!
.	.	.	.	8A\	-ce-	-ce-	.	.	.	.	.	.
*	*	*	*	*	*	*	*	*	*	*custos:cc	*	*
!	!	!	!	!	!	!	!	!	!	!LO:PB:g=original	!	!
=65-	=65-	=65-	=65-	=65-	=65-	=65-	=65-	=65-	=65-	=65-	=65-	=65-
2AA/	# X	2e/	2cc#\	2A\	-re,	-re.	.	.	.	2r	.	.
!	!	!	!LO:MO:mod=!null:null	!	!	!	!	!	!	!	!	!
!	!	!	!LO:N:acc==	!	!	!	!	!	!	!	!	!
2FF/	.	2f/	2ccnX\	2r	.	.	.	.	.	8r	.	.
.	.	.	.	.	.	.	.	.	.	8cc\	ſúm	Sum
.	.	.	.	.	.	.	.	.	.	8a\	e-	e-
.	.	.	.	.	.	.	.	.	.	16a\	-go	-go
!	!	!	!	!	!	!	!	!	!	!LO:TX:t=P:problem:kreska pseudotaktowa	!	!
.	.	.	.	.	.	.	.	.	.	16g/	ca-	ca-
!	!	!	!	!LO:TX:a:t=8:mod=	!	!	!	!	!	!	!	!
2F\	.	2f/	4cc\	00r	.	.	.	.	.	8a\	-tel-	-tel-
.	.	.	.	.	.	.	.	.	.	8a\	-lús	-lus,
.	.	.	4a\	.	.	.	.	.	.	8r	.	.
.	.	.	.	.	.	.	.	.	.	8ff\	ſúm	ſum
!	!	!	!	!	!	!	!	!	!	!LO:MO:mod=!null:null	!	!
!	!	!	!	!	!	!	!	!	!	!LO:N:acc=#	!	!
4D/	6\ X	4f/	4f/	.	.	.	.	.	.	8bn\	e-	e-
.	.	.	.	.	.	.	.	.	.	16cc\	-go	-go
.	7 X	.	.	.	.	.	.	.	.	16cc\	ca-	ca-
4C/	.	4e/	4g/	.	.	.	.	.	.	8cc\	-tel-	-tel-
!	!	!	!	!	!	!	!	!	!	!LO:TX:t=P:problem:kreska pseudotaktowa	!	!
.	.	.	.	.	.	.	.	.	.	8cc\	-lús	-lus
!!linebreak:original
=66-	=66-	=66-	=66-	=66-	=66-	=66-	=66-	=66-	=66-	=66-	=66-	=66-
1C	- X	1e-X	1g	.	.	.	00r	.	.	4r	.	.
.	.	.	.	.	.	.	.	.	.	8ee-X\	ec-	ec-
.	.	.	.	.	.	.	.	.	.	8cc\	-ce!	-ce!
.	.	.	.	.	.	.	.	.	.	8r	.	.
.	.	.	.	.	.	.	.	.	.	16g/	in-	In-
.	.	.	.	.	.	.	.	.	.	16g/	-fra	-fra
.	.	.	.	.	.	.	.	.	.	8g/	men-	men-
!	!	!	!	!	!	!	!	!	!	!LO:TX:t=P:problem:kreska pseudotaktowa	!	!
.	.	.	.	.	.	.	.	.	.	8g/	-ſam	-ſam
2C/	- X	4e-/	2cc\	.	.	.	.	.	.	8g/	men-	men-
.	.	.	.	.	.	.	.	.	.	8g/	-ſa(m)	-ſam
.	.	4e-/	.	.	.	.	.	.	.	8g/	tu-	tu-
.	.	.	.	.	.	.	.	.	.	8a\	-am	-am
*	*	*	*	*	*	*	*	*	*	*custos:f	*	*
!	!	!	!	!	!	!	!	!	!	!LO:LB:g=original	!	!
2D/	# X	2d/	2a\	.	.	.	.	.	.	8.f#X/	hae-	hae-
.	.	.	.	.	.	.	.	.	.	16f#/	-re-	-re-
!	!	!	!	!	!	!	!	!	!	!LO:TX:t=P:problem:kreska pseudotaktowa	!	!
.	.	.	.	.	.	.	.	.	.	4f#/	-o	-o
=67-	=67-	=67-	=67-	=67-	=67-	=67-	=67-	=67-	=67-	=67-	=67-	=67-
!	!	!	!LO:SIC:v:s=1e-	!	!	!	!	!	!	!	!	!
4.C/	# X	2g/	1e	.	.	.	.	.	.	8g/	et	et
.	.	.	.	.	.	.	.	.	.	16g/	de-	de-
.	.	.	.	.	.	.	.	.	.	16g/	-la-	-la-
.	.	.	.	.	.	.	.	.	.	8a\	-ben-	-ben-
8BB-/	6 X	.	.	.	.	.	.	.	.	8b-\	-tes	-tes
2AA/	6 X	2a\	.	.	.	.	.	.	.	4cc\	mi-	mi-
!	!	!	!	!	!	!	!	!	!	!LO:TX:t=P:problem:kreska pseudotaktowa	!	!
.	.	.	.	.	.	.	.	.	.	4cc\	-cas	-cas
*custos:AA	*	*	*custos:a	*	*	*	*	*	*	*	*	*
!LO:LB:g=original	!	!	!LO:LB:g=original	!	!	!	!	!	!	!	!	!
2AA/	6 X	2cc\	2a\	00r	.	.	.	.	.	8.f#X/	a-	a-
.	.	.	.	.	.	.	.	.	.	16f#/	-vi-	-vi-
.	.	.	.	.	.	.	.	.	.	4f#/	-de	-de,
!	!	!LO:TX:t=P:problem:kreska pseudotaktowa	!	!	!	!	!	!	!	!	!	!
2GG/	.	2g/	2dd\	.	.	.	.	.	.	8.b-\	a-	a-
.	.	.	.	.	.	.	.	.	.	16b-\	-vi-	-vi-
!	!	!	!	!	!	!	!	!	!	!LO:TX:t=P:problem:kreska pseudotaktowa	!	!
.	.	.	.	.	.	.	.	.	.	4b-\	-de	-de,
=68-	=68-	=68-	=68-	=68-	=68-	=68-	=68-	=68-	=68-	=68-	=68-	=68-
*	*	*	*	*	*	*	*	*	*	*	*ij	*
2C/	.	2g/	2cc\	.	.	.	00r	.	.	8.ee-X\	a-	a-
.	.	.	.	.	.	.	.	.	.	16dd\	-vi-	-vi-
.	.	.	.	.	.	.	.	.	.	8cc\	-de	-de
*	*	*	*	*	*	*	*	*	*	*	*Xij	*
.	.	.	.	.	.	.	.	.	.	8dd\	ex-	ex-
!LO:TX:t=P:problem:kreska pseudotaktowa	!	!	!	!	!	!	!	!	!	!	!	!
2D/	6 4	2d/	4g/	.	.	.	.	.	.	4.b-\	-pe-	-pe-
.	.	.	4f#X/	.	.	.	.	.	.	.	.	.
!	!	!	!	!	!	!	!	!	!	!LO:TX:t=P:problem:kreska pseudotaktowa	!	!
.	5 3	.	.	.	.	.	.	.	.	8a\	.	.
*	*	*custos:	*	*	*	*	*	*	*	*custos:g	*	*
!	!	!LO:LB:g=original	!LO:MO:mod=!null:null	!	!	!	!	!	!	!LO:LB:g=original	!	!
!	!	!	!LO:N:acc=#	!	!	!	!	!	!	!	!	!
2GG/	# X	2d/	2.bn\	.	.	.	.	.	.	4g/	-cto,	-cto,
.	.	.	.	.	.	.	.	.	.	8dd\	de-	de-
.	.	.	.	.	.	.	.	.	.	16dd\	-ci-	-ci-
.	.	.	.	.	.	.	.	.	.	16dd\	-dant	-dant
!	!	!	!	!	!	!	!	!	!	!LO:MO:mod=!null:null	!	!
!	!	!	!	!	!	!	!	!	!	!LO:N:acc=#	!	!
4G\	.	4g/	.	.	.	.	.	.	.	8bn\	tan-	tan-
.	.	.	.	.	.	.	.	.	.	8b\	-dem,	-dem,
4E\	.	4cc\	4g/	.	.	.	.	.	.	8cc\	de-	de-
.	.	.	.	.	.	.	.	.	.	16cc\	-ci-	-ci-
!	!	!	!	!	!	!	!	!	!	!LO:TX:t=P:problem:kreska pseudotaktowa	!	!
.	.	.	.	.	.	.	.	.	.	16cc\	-dant	-dant
=69-	=69-	=69-	=69-	=69-	=69-	=69-	=69-	=69-	=69-	=69-	=69-	=69-
*	*	*2\right	*	*	*	*	*	*	*	*	*	*
4F\	.	2cc\	2a\	.	.	.	.	.	.	8a\	tan-	tan-
.	.	.	.	.	.	.	.	.	.	8a\	-dem,	-dem,
4AA/	6 X	.	.	.	.	.	.	.	.	8r	.	.
.	.	.	.	.	.	.	.	.	.	8ff\	ah!	ah!
2BB-/	.	2b-\	2dd\	.	.	.	.	.	.	4.dd\	de-	De-
.	.	.	.	.	.	.	.	.	.	16b-\	-ci-	-ci-
!	!	!	!	!	!	!	!	!	!	!LO:TX:t=P:problem:kreska pseudotaktowa	!	!
.	.	.	.	.	.	.	.	.	.	16a\	-dant	-dant
*	*	*	*	*custos:G	*	*	*	*	*	*	*	*
!	!	!	!	!LO:LB:g=original	!	!	!	!	!	!	!	!
4C/	.	4g/	1cc	2r	.	.	.	.	.	4g/	tan-	tan-
4FF/	.	4a\	.	.	.	.	.	.	.	4f/	-dem.	-dem.
!	!	!LO:TX:t=P:problem:kreska pseudotaktowa	!	!	!	!	!	!	!	!LO:TX:t=P:problem:kreska pseudotaktowa	!	!
2C/	.	2g/	.	8r	.	.	.	.	.	2r	.	.
.	.	.	.	8G\	ô	O	.	.	.	.	.	.
.	.	.	.	8E\	mú-	mu-	.	.	.	.	.	.
.	.	.	.	16E\	-li-	-li-	.	.	.	.	.	.
!	!	!	!	!LO:TX:t=P:problem:kreska pseudotaktowa	!	!	!	!	!	!	!	!
.	.	.	.	16E\	-er	-er,	.	.	.	.	.	.
!!linebreak:original
=70-	=70-	=70-	=70-	=70-	=70-	=70-	=70-	=70-	=70-	=70-	=70-	=70-
!	!	!	!	!	!	!	!LO:MO:mod=!null:null	!	!	!	!	!
!	!	!	!	!	!	!	!LO:N:vis=0r	!	!	!	!	!
2C/	.	2e/	2.g/	8G\	mú-	mu-	0.r	.	.	0r	.	.
.	.	.	.	16G\	-li-	-li-	.	.	.	.	.	.
.	.	.	.	16G\	-er	-er,	.	.	.	.	.	.
.	.	.	.	8E\	fi-	fi-	.	.	.	.	.	.
.	.	.	.	8G\	-de	-de	.	.	.	.	.	.
2AA/	7 X	2c/	.	4.G\	ma-	ma-	.	.	.	.	.	.
.	.	.	4f#X/	.	.	.	.	.	.	.	.	.
!	!	!	!	!LO:TX:t=P:problem:kreska pseudotaktowa	!	!	!	!	!	!	!	!
.	6\ X	.	.	8A\	-gna	-gna	.	.	.	.	.	.
!	!	!	!	!LO:MO:mod=!null:null	!	!	!	!	!	!	!	!
!	!	!	!	!LO:N:acc=#	!	!	!	!	!	!	!	!
4.GG/	# X	2d/	4.g/	8.Bn\	prae-	prae-	.	.	.	.	.	.
.	.	.	.	16B\	-di-	-di-	.	.	.	.	.	.
.	.	.	.	8B\	-ta,	-ta.	.	.	.	.	.	.
8DD/	.	.	8f#X/	8A\	ô	O	.	.	.	.	.	.
*	*	*	*2\left	*	*	*	*	*	*	*	*	*
!LO:TX:t=P:problem:kreska pseudotaktowa	!	!	!	!	!	!	!	!	!	!	!	!
2D/	.	2f/	2a\	8F\	mú-	mu-	.	.	.	.	.	.
.	.	.	.	16F\	-li-	-li-	.	.	.	.	.	.
.	.	.	.	16F\	-er	-er,	.	.	.	.	.	.
.	.	.	.	8F\	fi-	fi-	.	.	.	.	.	.
!	!	!	!	!LO:TX:t=P:problem:kreska pseudotaktowa	!	!	!	!	!	!	!	!
.	.	.	.	8A\	-de	-de	.	.	.	.	.	.
*	*	*	*	*custos:D	*	*	*	*	*	*	*	*
!	!	!	!	!LO:LB:g=original	!	!	!	!	!	!	!	!
=71-	=71-	=71-	=71-	=71-	=71-	=71-	=71-	=71-	=71-	=71-	=71-	=71-
2BB-/	7 X	4.f/	4a\	4.D/	ma-	ma-	.	.	.	1r	.	.
.	6 X	.	4g/	.	.	.	.	.	.	.	.	.
.	.	8e/	.	8C#X/	-gna	-gna	.	.	.	.	.	.
2AA/	# X	2e/	2a\	8.E\	prae-	prae-	.	.	.	.	.	.
.	.	.	.	16E\	-di-	-di-	.	.	.	.	.	.
.	.	.	.	4E\	-ta,	-ta,	.	.	.	.	.	.
=72-	=72-	=72-	=72-	=72-	=72-	=72-	=72-	=72-	=72-	=72-	=72-	=72-
!LO:MO:mod=*M3/1	!	!LO:MO:mod=*M3/1	!LO:MO:mod=*M3/1	!	!	!	!LO:MO:mod=*M3/1	!	!	!LO:MO:mod=*M3/1	!	!
*M3/2	*	*M3/2	*M3/2	*M3/1	*	*	*M3/2	*	*	*M3/2	*	*
!	!	!	!	!	!	!	!LO:TX:a:t=6:mod=	!	!	!LO:TX:a:t=6:mod=	!	!
1.FF	.	1.f	1.cc	2r	.	.	00.r	.	.	00.r	.	.
.	.	.	.	2A\	fi-	fi-	.	.	.	.	.	.
.	.	.	.	2A\	-at	-at	.	.	.	.	.	.
1.GG	.	1.d	1b-y	(>2G\	ti-	ti-	.	.	.	.	.	.
.	.	.	.	2A\)	.	.	.	.	.	.	.	.
!	!	!	!	!LO:TX:t=P:problem:kreska pseudotaktowa	!	!	!	!	!	!	!	!
.	.	.	2ryy	2F\	-bi	-bi	.	.	.	.	.	.
=73-	=73-	=73-	=73-	=73-	=73-	=73-	=73-	=73-	=73-	=73-	=73-	=73-
1.AA	6 4	2d/	2ryy	(>2F\	ſi-	ſi-	.	.	.	.	.	.
.	5\ #	1e	1a	2.E\)	.	.	.	.	.	.	.	.
!	!	!	!	!LO:TX:t=P:problem:kreska pseudotaktowa	!	!	!	!	!	!	!	!
.	.	.	.	4F\	-cút	-cut	.	.	.	.	.	.
*custos:D	*	*	*	*	*	*	*	*	*	*	*	*
!LO:LB:g=original	!	!	!	!	!	!	!	!	!	!	!	!
1D	X #	1f#X	1a	2D/	vis,	vis,	.	.	.	.	.	.
.	.	.	.	2A\	fi-	fi-	.	.	.	.	.	.
*	*	*2\left	*	*	*	*	*	*	*	*	*	*
!	!	!LO:TX:t=P:problem:kreska pseudotaktowa	!	!LO:TX:t=P:problem:kreska pseudotaktowa	!	!	!	!	!	!	!	!
2BB-/	6 X	2b-\	2g/	2B-\	-at	-at	.	.	.	.	.	.
=74-	=74-	=74-	=74-	=74-	=74-	=74-	=74-	=74-	=74-	=74-	=74-	=74-
2C/	- X	2ee-X\	2g/	1c	ti-	ti-	0.r	.	.	0.r	.	.
2D/	# X	2a\	2f#X/	.	.	.	.	.	.	.	.	.
2E-X\	6 X	2cc\	2g/	2G\	-bi	-bi	.	.	.	.	.	.
*	*	*custos:dd	*custos:g	*custos:B-	*	*	*	*	*	*	*	*
!	!	!LO:LB:g=original	!LO:LB:g=original	!LO:LB:g=original	!	!	!	!	!	!	!	!
1.D	6 4	2dd\	2g/	(>2B-\	ſi-	ſi-	.	.	.	.	.	.
.	5 #	2.f#X/	1a	2.A\)	.	.	.	.	.	.	.	.
.	.	4g/	.	4G\	-cút	-cut	.	.	.	.	.	.
!!linebreak:original
=75-	=75-	=75-	=75-	=75-	=75-	=75-	=75-	=75-	=75-	=75-	=75-	=75-
*M2/1	*	*M2/1	*M2/1	*M2/1	*	*	*M2/1	*	*	*M2/1	*	*
*met(C)	*	*met(C)	*met(C)	*met(C|)	*	*	*met(C)	*	*	*met(C)	*	*
!	!	!	!LO:MO:mod=!null:null	!	!	!	!	!	!	!	!	!
!	!	!	!LO:N:acc=#	!	!	!	!LO:TX:a:t=i0.:mod=	!	!	!LO:TX:a:t=i0:mod=	!	!
1GG	# X	2g/	1bn	4G\	vis,	vis,	00r	.	.	00r	.	.
.	.	.	.	4G\	et	et	.	.	.	.	.	.
.	.	2d/	.	8G\	pro-	pro-	.	.	.	.	.	.
.	.	.	.	8F\	-pter	-pter	.	.	.	.	.	.
.	.	.	.	8F\	is-	is-	.	.	.	.	.	.
!	!	!	!	!LO:TX:t=P:problem:kreska pseudotaktowa	!	!	!	!	!	!	!	!
.	.	.	.	8E\	-túd	-tud	.	.	.	.	.	.
2C/	.	1e	1cc	8E\	dic-	dic-	.	.	.	.	.	.
.	.	.	.	8E\	-túm,	-tum,	.	.	.	.	.	.
.	.	.	.	8r	.	.	.	.	.	.	.	.
.	.	.	.	8C/	et	et	.	.	.	.	.	.
2C/	.	.	.	8G\	pro-	pro-	.	.	.	.	.	.
.	.	.	.	8G\	-pter	-pter	.	.	.	.	.	.
.	.	.	.	8G\	is-	is-	.	.	.	.	.	.
!	!	!	!	!LO:TX:t=P:problem:kreska pseudotaktowa	!	!	!	!	!	!	!	!
.	.	.	.	8F\	-túd,	-tud	.	.	.	.	.	.
=76-	=76-	=76-	=76-	=76-	=76-	=76-	=76-	=76-	=76-	=76-	=76-	=76-
2FF/	.	2fny/	2cc\	8A\	dic-	dic-	.	.	.	.	.	.
.	.	.	.	8A\	-túm	-tum,	.	.	.	.	.	.
.	.	.	.	(>16c\LL	a-	a-	.	.	.	.	.	.
.	.	.	.	16B-\JJ)	.	.	.	.	.	.	.	.
.	.	.	.	(>16A\LL	-bi	-bi,	.	.	.	.	.	.
.	.	.	.	16G\JJ)	.	.	.	.	.	.	.	.
*	*	*	*	*custos:c	*	*	*	*	*	*	*	*
!	!	!	!	!LO:LB:g=original	!	!	!	!	!	!	!	!
8AA/L	6 X	8f/L	8a\L	8c\	a-	a-	.	.	.	.	.	.
8BB-/J	.	8d/J	8g\J	8G\	-bi	-bi	.	.	.	.	.	.
!	!	!	!LO:TX:t=P:problem:kreska pseudotaktowa	!	!	!	!	!	!	!	!	!
4C/	.	4e/	4g/	(>8.G\L	lae-	lae-	.	.	.	.	.	.
!	!	!	!	!LO:TX:t=P:problem:kreska pseudotaktowa	!	!	!	!	!	!	!	!
.	.	.	.	16F\Jk)	.	.	.	.	.	.	.	.
1FF	.	1f	1a	4.F\	-ta,	-ta,	.	.	.	.	.	.
.	.	.	.	8F\	Dae-	Dae-	.	.	.	.	.	.
.	.	.	.	4.A\	-mo-	-mo-	.	.	.	.	.	.
!	!	!	!	!LO:TX:t=P:problem:kreska pseudotaktowa	!	!	!	!	!	!	!	!
.	.	.	.	8A\	-ni-	-ni-	.	.	.	.	.	.
=77-	=77-	=77-	=77-	=77-	=77-	=77-	=77-	=77-	=77-	=77-	=77-	=77-
2FF/	.	2f/	2cc\	2A\	-úm	-um	00r	.	.	00r	.	.
!LO:TX:t=P:problem:kreska pseudotaktowa	!	!	!	!	!	!	!	!	!	!	!	!
!LO:MO:mod=!null:null	!	!	!LO:MO:mod=!null:null	!	!	!	!	!	!	!	!	!
!LO:N:acc=#	!	!	!LO:N:acc=#	!	!	!	!	!	!	!	!	!
2BBn/	5 3	2d/	2bn\	4.F\	e-	e-	.	.	.	.	.	.
!	!	!	!	!LO:TX:t=P:problem:kreska pseudotaktowa	!	!	!	!	!	!	!	!
.	.	.	.	8E\	-mi-	-mi-	.	.	.	.	.	.
4.C/	.	2e/	2g/	4E\	-gra-	-gra-	.	.	.	.	.	.
.	.	.	.	8E\	-vit	-vit	.	.	.	.	.	.
8Eny\	6 X	.	.	8G\	è	e	.	.	.	.	.	.
2F\	.	2cc\	2fny/	4A\	fi-	fi-	.	.	.	.	.	.
.	.	.	.	8A\	-li-	-li-	.	.	.	.	.	.
!	!	!	!	!LO:TX:t=P:problem:kreska pseudotaktowa	!	!	!	!	!	!	!	!
.	.	.	.	8G\	-a	-a	.	.	.	.	.	.
=78-	=78-	=78-	=78-	=78-	=78-	=78-	=78-	=78-	=78-	=78-	=78-	=78-
2G\	.	4cc\	2d/	2G\	tú-	tu-	.	.	.	.	.	.
!	!	!LO:MO:mod=!null:null	!	!	!	!	!	!	!	!	!	!
!	!	!LO:N:acc=#	!	!	!	!	!	!	!	!	!	!
.	.	4bn\	.	.	.	.	.	.	.	.	.	.
!LO:TX:t=P:problem:kreska pseudotaktowa	!	!	!	!LO:TX:t=P:problem:kreska pseudotaktowa	!	!	!	!	!	!	!	!
2C/	.	2cc\	2e/	2C/	-a	-a.	.	.	.	.	.	.
*	*	*	*	*custos:C	*	*	*	*	*	*	*	*
!	!	!	!	!LO:LB:g=original	!	!	!	!	!	!	!	!
4C/	.	4cc\	2g/	(<16C/LL	a-	A-	.	.	.	.	.	.
.	.	.	.	16D/JJ)	.	.	.	.	.	.	.	.
.	.	.	.	(>16E\LL	-bi	-bi	.	.	.	.	.	.
.	.	.	.	16F\JJ)	.	.	.	.	.	.	.	.
!LO:MO:mod=!null:null	!	!	!	!	!	!	!	!	!	!	!	!
!LO:N:acc=#	!	!	!	!	!	!	!	!	!	!	!	!
4BBn/	.	4dd\	.	8G\	lae-	lae-	.	.	.	.	.	.
.	.	.	.	8G\	-ta,	-ta,	.	.	.	.	.	.
4AA/	.	4eeny\	4cc\	(>16A\LL	a-	a-	.	.	.	.	.	.
.	.	.	.	16B-\JJ)	.	.	.	.	.	.	.	.
.	.	.	.	(>16c\LL	-bi	-bi	.	.	.	.	.	.
.	.	.	.	16d\JJ)	.	.	.	.	.	.	.	.
!LO:TX:t=P:problem:kreska pseudotaktowa	!	!	!	!	!	!	!	!	!	!	!	!
!	!	!LO:MO:mod=!null:null	!LO:TX:t=P:problem:kreska pseudotaktowa	!LO:MO:mod=!null:null	!	!	!	!	!	!	!	!
!	!	!LO:N:acc=#	!	!LO:N:acc=#	!	!	!	!	!	!	!	!
4GG/	# X	4bn\	4dd\	8Bn\	lae-	lae-	.	.	.	.	.	.
!	!	!	!	!LO:TX:t=P:problem:kreska pseudotaktowa	!	!	!	!	!	!	!	!
.	.	.	.	8G\	-ta,	-ta,	.	.	.	.	.	.
!LO:SIC:v:t=custos 8BBn:acc=#	!	!	!	!	!	!	!	!	!	!	!	!
*custos:BBn	*	*	*	*	*	*	*	*	*	*	*	*
!LO:LB:g=original	!	!	!	!	!	!	!	!	!	!	!	!
=79-	=79-	=79-	=79-	=79-	=79-	=79-	=79-	=79-	=79-	=79-	=79-	=79-
!LO:MO:mod=!null:null	!	!LO:MO:mod=!null:null	!	!	!	!	!	!	!	!	!	!
!LO:N:acc=#	!	!LO:N:acc=#	!	!	!	!	!	!	!	!LO:TX:t=P:problem:kreska pseudotaktowa	!	!
8.BBn/L	6 X	8bn\L	4.g/	(>16d\LL	a-	a-	0r	.	.	0r	.	.
.	.	.	.	16c\JJ)	.	.	.	.	.	.	.	.
!	!	!	!	!LO:MO:mod=!null:null	!	!	!	!	!	!	!	!
!	!	!	!	!LO:N:acc=#	!	!	!	!	!	!	!	!
.	.	8g\J	.	(>16Bn\LL	-bi	-bi	.	.	.	.	.	.
16C/Jk	.	.	.	16c\JJ)	.	.	.	.	.	.	.	.
4D/	4:# X	4a\	.	8.A\L	lae-	lae-	.	.	.	.	.	.
.	.	.	8f#X/	.	.	.	.	.	.	.	.	.
!	!	!	!	!LO:MO:mod=!null:null	!	!	!	!	!	!	!	!
!	!	!	!	!LO:N:acc=#	!	!	!	!	!	!	!	!
.	.	.	.	16Bn\Jk	.	.	.	.	.	.	.	.
!	!	!LO:MO:mod=!null:null	!	!	!	!	!	!	!	!	!	!
!	!	!LO:N:acc=#	!	!	!	!	!	!	!	!	!	!
4GG/	.	4.bn\	4g/	4G\	-ta,	-ta,	.	.	.	.	.	.
!LO:MO:mod=!null:null	!	!	!	!	!	!	!	!	!	!	!	!
!LO:N:acc=#	!	!	!	!	!	!	!	!	!	!	!	!
8.BBn/L	.	.	4g/	(>16d\LL	a-	a-	.	.	.	.	.	.
.	.	.	.	16c\JJ)	.	.	.	.	.	.	.	.
!	!	!	!	!LO:MO:mod=!null:null	!	!	!	!	!	!	!	!
!	!	!	!	!LO:N:acc=#	!	!	!	!	!	!	!	!
.	.	8g\	.	(>16Bn\LL	-bi	-bi	.	.	.	.	.	.
!	!	!	!	!LO:TX:t=P:problem:kreska pseudotaktowa	!	!	!	!	!	!	!	!
16C/Jk	.	.	.	16c\JJ)	.	.	.	.	.	.	.	.
4D/	4:# X	4a\	8g/L	4A\	lae-	lae-	.	.	.	.	.	.
.	.	.	8f#X/J	.	.	.	.	.	.	.	.	.
!	!	!LO:MO:mod=!null:null	!	!	!	!	!	!	!	!	!	!
!LO:SIC:s=4GG;/	!	!LO:N:acc=#	!LO:SIC:s=4g;/	!LO:SIC:s=4G;/	!	!	!	!	!	!	!	!
4GG/	.	4bn;\	4g/	4G\	-ta.	-ta.	.	.	.	.	.	.
!	!	!	!	!LO:TX:t=P:problem:kreska pseudotaktowa	!	!	!	!	!	!	!	!
2ryy	.	2ryy	2r	2r	.	.	.	.	.	.	.	.
!	!	!	!LO:LB:g=original	!LO:PB:g=original	!	!	!LO:LB:g=original	!	!	!LO:LB:g=original	!	!
=80||	=80||	=80||	=80||	=80||	=80||	=80||	=80||	=80||	=80||	=80||	=80||	=80||
*M2/2	*	*M2/2	*M2/2	*M2/2	*	*	*M2/2	*	*	*M2/2	*	*
*met(C|)	*	*met(C|)	*met(C|)	*met(C|)	*	*	*met(C|)	*	*	*met(C|)	*	*
!LO:TX:t=P:problem:sporadyczne kreski pesudotaktowe wskazujące na metrum 4/4	!	!LO:TX:a:t=3:mod=	!LO:TX:a:t=2:mod=	!	!	!	!	!	!	!	!	!
4.G\	- X	0r	0r	0r	.	.	2r	.	.	8r	.	.
.	.	.	.	.	.	.	.	.	.	(>16g\LL	laú-	Lau-
.	.	.	.	.	.	.	.	.	.	16a\JJ)	.	.
.	.	.	.	.	.	.	.	.	.	(>16b-\LL	-da-	-da-
.	.	.	.	.	.	.	.	.	.	16cc\JJ)	.	.
8F#X\	6 X	.	.	.	.	.	.	.	.	(>16dd\LL	-te	-te
!	!	!	!	!	!	!	!	!	!	!LO:SIC:v:s=16ee-\JJ)	!	!
.	.	.	.	.	.	.	.	.	.	16ee\JJ)	.	.
4.G\	- X	.	.	.	.	.	8r	.	.	8b-\	Do-	Do-
.	.	.	.	.	.	.	(>16g\LL	laú-	Lau-	16a\	-mi-	-mi-
.	.	.	.	.	.	.	16a\JJ)	.	.	16g/	-núm	-num
.	.	.	.	.	.	.	(>16b-\LL	-da-	-da-	8g/	om-	om-
.	.	.	.	.	.	.	16cc\JJ)	.	.	.	.	.
!LO:TX:t=P:problem:kreska pseudotaktowa	!	!	!	!	!	!	!	!	!	!LO:TX:t=P:problem:kreska pseudotaktowa	!	!
8D\	# X	.	.	.	.	.	(>16dd\LL	-te	-te	8f#X/	-nes	-nes
!	!	!	!	!	!	!	!LO:TX:t=P:problem:kreska pseudotaktowa	!	!	!	!	!
.	.	.	.	.	.	.	16cc\JJ)	.	.	.	.	.
=81-	=81-	=81-	=81-	=81-	=81-	=81-	=81-	=81-	=81-	=81-	=81-	=81-
4.G\	.	.	.	.	.	.	8b-\	Do-	Do-	16g\LL	gen-	gen-
.	.	.	.	.	.	.	.	.	.	16a\	.	.
.	.	.	.	.	.	.	16a\	-mi-	-mi-	16b-\	.	.
.	.	.	.	.	.	.	16g/	-núm	-num	16cc\JJ	.	.
.	.	.	.	.	.	.	8g/	om-	om-	8dd\	.	.
8D\	# X	.	.	.	.	.	8f#X/	-nes	-nes	8dd\	-tes	-tes,
4E-X\	7 X	.	.	.	.	.	16g\LL	gen-	gen-	8r	.	.
.	.	.	.	.	.	.	16a\	.	.	.	.	.
.	6 X	.	.	.	.	.	16b-\	.	.	8g/	laů-	lau-
.	.	.	.	.	.	.	16cc\JJ	.	.	.	.	.
!LO:TX:t=P:problem:kreska pseudotaktowa	!	!	!	!	!	!	!	!	!	!	!	!
4D/	# X	.	.	.	.	.	8dd\	.	.	8g/	-da-	-da-
!	!	!	!	!	!	!	!LO:TX:t=P:problem:kreska pseudotaktowa	!	!	!LO:TX:t=P:problem:kreska pseudotaktowa	!	!
.	.	.	.	.	.	.	8dd\	-tes	-tes,	8f#X/	-te	-te
=82-	=82-	=82-	=82-	=82-	=82-	=82-	=82-	=82-	=82-	=82-	=82-	=82-
4BB-/	6 X	1r	2r	8r	.	.	8r	.	.	8g/	e-	e-
.	.	.	.	(>16D\LL	laú-	Lau-	8dd\	laú-	lau-	8g/	-úm,	-um,
.	.	.	.	16E\JJ)	.	.	.	.	.	.	.	.
4AA/	4:# X	.	.	(>16F\LL	-da-	-da-	8dd\	-da-	-da-	4r	.	.
.	.	.	.	16G\JJ)	.	.	.	.	.	.	.	.
.	.	.	.	(>16A\LL	-te	-te	8cc#X\	-te	-te	.	.	.
.	.	.	.	16G\JJ)	.	.	.	.	.	.	.	.
4.D/	.	.	8r	8F\	Do-	Do-	8dd\	e-	e-	2r	.	.
.	.	.	16d/LL	16E\	-mi-	-mi-	8dd\	-úm	-um,	.	.	.
.	.	.	16e/JJ	16D/	-núm	-num	.	.	.	.	.	.
!	!	!	!	!LO:TX:t=P:problem:kreska pseudotaktowa	!	!	!	!	!	!	!	!
.	.	.	16f/LL	8D/	om-	om-	4r	.	.	.	.	.
.	.	.	16g/JJ	.	.	.	.	.	.	.	.	.
!LO:TX:t=P:problem:kreska pseudotaktowa	!	!	!	!	!	!	!	!	!	!	!	!
8C#X/	6 X	.	16a/LL	8C#X/	-nes	-nes	.	.	.	.	.	.
.	.	.	16g/JJ	.	.	.	.	.	.	.	.	.
=83-	=83-	=83-	=83-	=83-	=83-	=83-	=83-	=83-	=83-	=83-	=83-	=83-
4.D/	.	8r	8f/L	8D/	gen-	gen-	1r	.	.	1r	.	.
.	.	16d/LL	16e/L	8D/	-tes,	-tes,	.	.	.	.	.	.
.	.	16e/JJ	16d/JJ	.	.	.	.	.	.	.	.	.
.	.	16f/LL	8d/L	8D/	om-	om-	.	.	.	.	.	.
.	.	16g/JJ	.	.	.	.	.	.	.	.	.	.
8AA/	# X	16a\LL	8c#X/J	8AA/	-nes	-nes	.	.	.	.	.	.
.	.	16g\JJ	.	.	.	.	.	.	.	.	.	.
4D/	.	8f/L	8d/L	8D/	gen-	gen-	.	.	.	.	.	.
.	.	16e/L	8d/J	8D/	-tes	-tes	.	.	.	.	.	.
.	.	16d/JJ	.	.	.	.	.	.	.	.	.	.
8G\L	.	8b-\L	4r	16r	.	.	.	.	.	.	.	.
.	.	.	.	16G\	laú-	lau-	.	.	.	.	.	.
!LO:TX:t=P:problem:kreska pseudotaktowa	!	!	!	!	!	!	!	!	!	!	!	!
8F#X\J	.	8a\J	.	16G\	-da-	-da-	.	.	.	.	.	.
!	!	!	!	!LO:TX:t=P:problem:kreska pseudotaktowa	!	!	!	!	!	!	!	!
.	.	.	.	16F#X\	-te	-te	.	.	.	.	.	.
*custos:G	*	*	*	*	*	*	*	*	*	*	*	*
!LO:LB:g=original	!	!	!	!	!	!	!	!	!	!	!	!
=84-	=84-	=84-	=84-	=84-	=84-	=84-	=84-	=84-	=84-	=84-	=84-	=84-
!	!	!	!LO:TX:a:t=6:mod=	!	!	!	!	!	!	!	!	!
4G\	.	8b-\L	00r	8G\	E-	e-	4r	.	.	4r	.	.
.	.	8b-\J	.	8G\	-úm	-um	.	.	.	.	.	.
8C/L	7 X	4r	.	8C/	om-	om-	8g/	om-	om-	8b-\	om-	om-
8D/J	# X	.	.	8D/	-nes	-nes	8f#X/	-nes	-nes	8cc\	-nes	-nes
*	*	*	*	*custos:G	*	*	*	*	*	*	*	*
!	!	!	!	!LO:LB:g=original	!	!	!LO:LB:g=original	!	!	!	!	!
4G\	.	2r	.	8G\	gen-	gen-	8g/	gen-	gen-	8b-\	gen-	gen-
.	.	.	.	16G\	-tes	-tes	8g/	-tes	-tes,	8b-\	-tes,	-tes,
.	.	.	.	16G\	laú-	lau-	.	.	.	.	.	.
!LO:TX:t=P:problem:kreska pseudotaktowa	!	!	!	!	!	!	!	!	!	!LO:TX:t=P:problem:kreska pseudotaktowa	!	!
4D/	.	.	.	16D\LL	-da-	-da-	8r	.	.	4ff\	laú-	lau-
.	.	.	.	16E\	.	.	.	.	.	.	.	.
.	.	.	.	16D\	.	.	8dd\	laů-	lau-	.	.	.
!	!	!	!	!LO:TX:t=P:problem:kreska pseudotaktowa	!	!	!	!	!	!	!	!
.	.	.	.	16E\JJ	.	.	.	.	.	.	.	.
!	!	!	!	!	!	!	!	!	!	!LO:LB:g=original	!	!
=85-	=85-	=85-	=85-	=85-	=85-	=85-	=85-	=85-	=85-	=85-	=85-	=85-
4F\	.	1r	.	4F\	.	.	16a\LL	-da-	-da-	16cc\LL	-da-	-da-
.	.	.	.	.	.	.	16b-\	.	.	16dd\	.	.
.	.	.	.	.	.	.	16a\	.	.	16cc\	.	.
.	.	.	.	.	.	.	16b-\JJ	.	.	16dd\JJ	.	.
4C/	- X	.	.	16C\LL	.	.	4ccny\	.	.	4ee-X\	.	.
.	.	.	.	16D\	.	.	.	.	.	.	.	.
.	.	.	.	16C\	.	.	.	.	.	.	.	.
.	.	.	.	16D\JJ	.	.	.	.	.	.	.	.
4E-X\	.	.	.	8E-X\L	.	.	16g\LL	.	.	16b-\LL	.	.
.	.	.	.	.	.	.	16a\	.	.	16cc\	.	.
.	.	.	.	16D\L	.	.	16g\	.	.	16b-\	.	.
.	.	.	.	16C\JJ	.	.	16a\JJ	.	.	16cc\JJ	.	.
!LO:TX:t=P:problem:kreska pseudotaktowa	!	!	!	!	!	!	!	!	!	!	!	!
4BB-/	.	.	.	16BB-/LL	.	.	8b-\L	.	.	8dd\L	.	.
.	.	.	.	16C/	.	.	.	.	.	.	.	.
.	.	.	.	16BB-/	.	.	16a\L	.	.	16cc\L	.	.
!	!	!	!	!LO:TX:t=P:problem:kreska pseudotaktowa	!	!	!	!	!	!LO:TX:t=P:problem:kreska pseudotaktowa	!	!
.	.	.	.	16C/JJ	.	.	16g\JJ	.	.	16b-\JJ	.	.
=86-	=86-	=86-	=86-	=86-	=86-	=86-	=86-	=86-	=86-	=86-	=86-	=86-
4D/	.	1r	.	4D/	.	.	16fny/LL	.	.	16a\LL	.	.
.	.	.	.	.	.	.	16g/	.	.	16b-\	.	.
.	.	.	.	.	.	.	16f/	.	.	16a\	.	.
.	.	.	.	.	.	.	16g/JJ	.	.	16b-\JJ	.	.
4AA/	6 X	.	.	8.AA/	-te,	-te,	8a\	.	.	8cc\	.	.
.	.	.	.	.	.	.	16a\	-te	-te,	16cc\	-te	-te,
.	.	.	.	16AA/	laú-	lau-	16a\	laú-	lau-	16cc\	laú-	lau-
8BB-/L	.	.	.	8BB-/	-da-	-da-	8f/	-da-	-da-	8dd\	-da-	-da-
8C/	.	.	.	8C/	-te	-te	8f/	-te	-te	8cc\	-te	-te
8D/	.	.	.	8D/	E-	e-	8f/	e-	e-	8.b-\	e-	e-
!LO:TX:t=P:problem:kreska pseudotaktowa	!	!	!	!LO:TX:t=P:problem:kreska pseudotaktowa	!	!	!	!	!	!	!	!
8BB-/J	.	.	.	8BB-/	-úm	-um	8f/	-úm	-um	.	.	.
!	!	!	!	!	!	!	!	!	!	!LO:TX:t=P:problem:kreska pseudotaktowa	!	!
.	.	.	.	.	.	.	.	.	.	16a\	-úm	-um
=87-	=87-	=87-	=87-	=87-	=87-	=87-	=87-	=87-	=87-	=87-	=87-	=87-
4C/	.	1r	.	8C/	om-	om-	8e/	om-	om-	8g/	om-	om-
.	.	.	.	8BB-/	-nes	-nes	8f/	-nes	-nes	8a\	-nes	-nes
4CC/	.	.	.	8C/	po-	po-	8.f/	po-	po-	8.g/	po-	po-
.	.	.	.	8C/	-pú-	-pu-	.	.	.	.	.	.
.	.	.	.	.	.	.	16e/	-pú-	-pu-	16g/	-pú	-pu
*	*	*	*	*custos:F	*	*	*	*	*	*	*	*
!	!	!	!	!	!	!	!	!	!	!	!-	!-
!	!	!	!	!LO:LB:g=original	!	!	!	!	!	!	!	!
4FF/	.	.	.	4F\	-li	-li.	4f/	-li	-li.	8f/	-li,	-li.
.	.	.	.	.	.	.	.	.	.	(<16f/LL	laú-	Lau-
.	.	.	.	.	.	.	.	.	.	16g/JJ)	.	.
!	!	!	!	!	!	!	!LO:TX:b:i:t=volti:mod=	!	!	!	!	!
8F\L	6 X	.	.	4r	.	.	4r	.	.	(>16a\LL	-da-	-da-
.	.	.	.	.	.	.	.	.	.	16b-\JJ)	.	.
!LO:TX:t=P:problem:kreska pseudotaktowa	!	!	!	!	!	!	!	!	!	!	!	!
8E\J	.	.	.	.	.	.	.	.	.	(>16cc\LL	-te	-te
!	!	!	!	!	!	!	!	!	!	!LO:TX:t=P:problem:kreska pseudotaktowa	!	!
.	.	.	.	.	.	.	.	.	.	16b-\JJ)	.	.
*	*	*	*	*	*	*	*	*	*	*custos:a	*	*
!	!	!	!	!	!	!	!LO:PB:g=original	!	!	!LO:LB:g=original	!	!
=88-	=88-	=88-	=88-	=88-	=88-	=88-	=88-	=88-	=88-	=88-	=88-	=88-
4.F\	.	1r	0r	1r	.	.	8r	.	.	8a\	Do-	Do-
.	.	.	.	.	.	.	(<16f/LL	laú-	lau-	16g/	-mi-	-mi-
.	.	.	.	.	.	.	16g/JJ)	.	.	16f/	-núm	-num
.	.	.	.	.	.	.	(>16a\LL	-da-	-da-	8f/	om-	om-
.	.	.	.	.	.	.	16b-\JJ)	.	.	.	.	.
8C/	.	.	.	.	.	.	(>16cc\LL	-te	-te	8e/	-nes	-nes
.	.	.	.	.	.	.	16b-\JJ)	.	.	.	.	.
4.F\	.	.	.	.	.	.	8a\	Do-	Do-	16f\LL	gen-	gen-
.	.	.	.	.	.	.	.	.	.	16g\	.	.
.	.	.	.	.	.	.	16g\	-mi-	-mi-	16a\	.	.
.	.	.	.	.	.	.	16f/	-núm	-num	16b-\JJ	.	.
.	.	.	.	.	.	.	8f/	om-	om-	8cc\	.	.
!LO:TX:t=P:problem:kreska pseudotaktowa	!	!	!	!	!	!	!LO:TX:t=P:problem:kreska pseudotaktowa	!	!	!	!	!
8C/	.	.	.	.	.	.	8e/	-nes	-nes	8cc\	-tes	-tes,
*	*	*	*	*	*	*	*	*	*	*custos:C	*	*
!	!	!	!	!	!	!	!	!	!	!LO:LB:g=original	!	!
=89-	=89-	=89-	=89-	=89-	=89-	=89-	=89-	=89-	=89-	=89-	=89-	=89-
4D/	7 X	1r	.	2r	.	.	16f\LL	gen-	gen-	8r	.	.
.	.	.	.	.	.	.	16g\	.	.	.	.	.
.	6 X	.	.	.	.	.	16a\	.	.	8ff\	laú-	lau-
.	.	.	.	.	.	.	16b-\JJ	.	.	.	.	.
4C/	.	.	.	.	.	.	8cc\	.	.	8ff\	-da-	-da-
.	.	.	.	.	.	.	8cc\	-tes,	-tes,	8ee\	-te	-te
4AA/	6 X	.	.	8r	.	.	8r	.	.	8ff\	e-	e-
.	.	.	.	(<16C/LL	laú-	lau-	8cc\	laú-	lau-	8ff\	-úm,	-um,
.	.	.	.	16D/JJ)	.	.	.	.	.	.	.	.
!LO:TX:t=P:problem:kreska pseudotaktowa	!	!	!	!	!	!	!	!	!	!	!	!
4GG/	4 X	.	.	(>16E\LL	-da-	-da-	8cc\	-da-	-da-	4r	.	.
.	.	.	.	16F\JJ)	.	.	.	.	.	.	.	.
!	!	!	!	!	!	!	!LO:TX:t=P:problem:kreska pseudotaktowa	!	!	!	!	!
!	!	!	!	!	!	!	!LO:MO:mod=!null:null	!	!	!	!	!
!	!	!	!	!	!	!	!LO:N:acc=#	!	!	!	!	!
.	3 X	.	.	16G\LL	-te	-te	8bn\	-te	-te	.	.	.
!	!	!	!	!LO:TX:t=P:problem:kreska pseudotaktowa	!	!	!	!	!	!	!	!
.	.	.	.	16F\JJ	.	.	.	.	.	.	.	.
*	*	*	*	*	*	*	*	*	*	*custos:C	*	*
!	!	!	!	!	!	!	!	!	!	!LO:LB:g=original	!	!
!!linebreak:original
=90-	=90-	=90-	=90-	=90-	=90-	=90-	=90-	=90-	=90-	=90-	=90-	=90-
4.C/	.	2r	8r	8E\	Do-	Do-	8cc\	e-	e-	00r	.	.
.	.	.	16cny/LL	16D/	-mi-	-mi-	8cc\	-úm	-um,	.	.	.
.	.	.	16d/JJ	16C/	-núm	-num	.	.	.	.	.	.
.	.	.	16e/LL	8C/	om-	om-	4r	.	.	.	.	.
.	.	.	16f/JJ	.	.	.	.	.	.	.	.	.
!LO:MO:mod=!null:null	!	!	!	!LO:MO:mod=!null:null	!	!	!	!	!	!	!	!
!LO:N:acc=#	!	!	!	!LO:N:acc=#	!	!	!	!	!	!	!	!
8BBn/	6 X	.	16g/LL	8BBn/	-nes	-nes	.	.	.	.	.	.
.	.	.	16f/JJ	.	.	.	.	.	.	.	.	.
*custos:C	*	*	*	*	*	*	*	*	*	*	*	*
!LO:LB:g=original	!	!	!	!	!	!	!	!	!	!	!	!
4.C/	- X	4r	8e-X/L	8C/	gen-	gen-	2r	.	.	.	.	.
.	.	.	16d/L	8C/	-tes	-tes,	.	.	.	.	.	.
.	.	.	16c/JJ	.	.	.	.	.	.	.	.	.
*	*	*	*	*	*ij	*	*	*	*	*	*	*
.	.	8ee-X\L	8cc\L	8C/	om-	om-	.	.	.	.	.	.
!LO:TX:t=P:problem:kreska pseudotaktowa	!	!LO:TX:t=P:problem:kreska pseudotaktowa	!LO:MO:mod=!null:null	!LO:TX:t=P:problem:kreska pseudotaktowa	!	!	!	!	!	!	!	!
!	!	!	!LO:N:acc=#	!	!	!	!	!	!	!	!	!
8GG/	# X	8dd\J	8bn\J	8G\	-nes	-nes	.	.	.	.	.	.
=91-	=91-	=91-	=91-	=91-	=91-	=91-	=91-	=91-	=91-	=91-	=91-	=91-
4C/	- X	8ee-X\L	8cc\L	8C/	gen-	gen-	0r	.	.	.	.	.
.	.	16ee-\L	16cc\L	8C/	-tes	-tes,	.	.	.	.	.	.
*	*	*	*	*	*Xij	*	*	*	*	*	*	*
.	.	16ee-\JJ	16cc\JJ	.	.	.	.	.	.	.	.	.
4E-X\	.	16b-\LL	16g\LL	8r	.	.	.	.	.	.	.	.
.	.	16cc\	16a\	.	.	.	.	.	.	.	.	.
.	.	16b-\	16g\	8E-X\	laú-	lau-	.	.	.	.	.	.
.	.	16cc\JJ	16a\JJ	.	.	.	.	.	.	.	.	.
*	*	*	*	*custos:BB-	*	*	*	*	*	*	*	*
!	!	!	!	!LO:LB:g=original	!	!	!	!	!	!	!	!
4BB-/	.	8dd\L	8b-y\L	16BB-/LL	-da-	-da-	.	.	.	.	.	.
.	.	.	.	16C/	.	.	.	.	.	.	.	.
.	.	16cc\L	16a\L	16BB-/	.	.	.	.	.	.	.	.
.	.	16b-\JJ	16g\JJ	16C/JJ	.	.	.	.	.	.	.	.
!LO:TX:t=P:problem:kreska pseudotaktowa	!	!	!	!	!	!	!	!	!	!	!	!
4D/	.	16a\LL	16f\LL	8D/L	.	.	.	.	.	.	.	.
.	.	16b-\	16g\	.	.	.	.	.	.	.	.	.
.	.	16a\	16f\	16C/L	.	.	.	.	.	.	.	.
!	!	!	!LO:TX:t=P:problem:kreska pseudotaktowa	!	!	!	!	!	!	!	!	!
!	!	!LO:TX:t=P:problem:kreska pseudotaktowa	!	!LO:TX:t=P:problem:kreska pseudotaktowa	!	!	!	!	!	!	!	!
.	.	16b-\JJ	16g\JJ	16BB-/JJ	.	.	.	.	.	.	.	.
*	*	*	*custos:a	*	*	*	*	*	*	*	*	*
!	!	!	!LO:LB:g=original	!	!	!	!	!	!	!	!	!
=92-	=92-	=92-	=92-	=92-	=92-	=92-	=92-	=92-	=92-	=92-	=92-	=92-
4AA/	6 X	8cc\L	8a\L	16AA/LL	.	.	.	.	.	.	.	.
.	.	.	.	16BB-/	.	.	.	.	.	.	.	.
.	.	16b-\L	16g\L	16AA/	.	.	.	.	.	.	.	.
.	.	16a\JJ	16f\JJ	16BB-/JJ	.	.	.	.	.	.	.	.
4C/	.	16g\LL	16e/LL	8C/L	.	.	.	.	.	.	.	.
.	.	16a\	16f/	.	.	.	.	.	.	.	.	.
.	.	16g\	16e/	16BB-/L	.	.	.	.	.	.	.	.
.	.	16a\JJ	16f/JJ	16AA/JJ	.	.	.	.	.	.	.	.
*	*	*custos:b-	*	*	*	*	*	*	*	*	*	*
!	!	!LO:LB:g=original	!	!	!	!	!	!	!	!	!	!
4GG/	.	16b-\LL	16g\LL	8GG/	.	.	.	.	.	.	.	.
.	.	16cc\	16a\	.	.	.	.	.	.	.	.	.
.	.	16b-\	16g\	8FF/	-te,	-te,	.	.	.	.	.	.
.	.	16cc\JJ	16a\JJ	.	.	.	.	.	.	.	.	.
!LO:TX:t=P:problem:kreska pseudotaktowa	!	!	!	!	!	!	!	!	!	!	!	!
4G\	.	16dd\LL	16b-\LL	8r	.	.	.	.	.	.	.	.
.	.	16ee\	16cc\	.	.	.	.	.	.	.	.	.
!	!	!	!	!LO:TX:t=P:problem:kreska pseudotaktowa	!	!	!	!	!	!	!	!
.	.	16dd\	16b-\	8G\	laú-	lau-	.	.	.	.	.	.
!	!	!LO:TX:t=P:problem:kreska pseudotaktowa	!LO:TX:t=P:problem:kreska pseudotaktowa	!	!	!	!	!	!	!	!	!
.	.	16ee\JJ	16cc\JJ	.	.	.	.	.	.	.	.	.
=93-	=93-	=93-	=93-	=93-	=93-	=93-	=93-	=93-	=93-	=93-	=93-	=93-
4D/	.	8ff\L	8dd\L	16D\LL	-da-	-da-	1r	.	.	.	.	.
.	.	.	.	16E\	.	.	.	.	.	.	.	.
.	.	16ee-X\L	16cc\L	16D\	.	.	.	.	.	.	.	.
.	.	16dd\JJ	16b-\JJ	16E\JJ	.	.	.	.	.	.	.	.
4F\	.	4cc\	16a\LL	4F\	.	.	.	.	.	.	.	.
.	.	.	16b-\	.	.	.	.	.	.	.	.	.
.	.	.	16g\	.	.	.	.	.	.	.	.	.
.	.	.	16a\JJ	.	.	.	.	.	.	.	.	.
4BB-/	.	8dd\L	8b-\L	4BB-/	-te,	-te,	.	.	.	.	.	.
.	.	8b-\J	8dd\J	.	.	.	.	.	.	.	.	.
!LO:TX:t=P:problem:kreska pseudotaktowa	!	!	!	!	!	!	!	!	!	!	!	!
4D/	.	16f/LL	16a\LL	8r	.	.	.	.	.	.	.	.
.	.	16g/	16b-\	.	.	.	.	.	.	.	.	.
!	!	!	!	!LO:TX:t=P:problem:kreska pseudotaktowa	!	!	!	!	!	!	!	!
.	.	16f/	16a\	8D/	laú-	lau-	.	.	.	.	.	.
!	!	!	!LO:TX:t=P:problem:kreska pseudotaktowa	!	!	!	!	!	!	!	!	!
.	.	16g/JJ	16b-\JJ	.	.	.	.	.	.	.	.	.
*	*	*	*	*	*	*	*custos:a	*	*	*	*	*
!	!	!	!	!	!	!	!LO:LB:g=original	!	!	!	!	!
=94-	=94-	=94-	=94-	=94-	=94-	=94-	=94-	=94-	=94-	=94-	=94-	=94-
4AA/	6 X	8a\L	8cc\L	16AA/LL	-da-	-da-	2r	.	.	2r	.	.
.	.	.	.	16BB-/	.	.	.	.	.	.	.	.
.	.	8a\J	8cc\J	16AA/	.	.	.	.	.	.	.	.
.	.	.	.	16BB-/JJ	.	.	.	.	.	.	.	.
4C/	.	16e/LL	16g\LL	8C/L	.	.	.	.	.	.	.	.
.	.	16f/	16a\	.	.	.	.	.	.	.	.	.
.	.	16d/	16g\	16BB-/L	.	.	.	.	.	.	.	.
.	.	16e/JJ	16a\JJ	16AA/JJ	.	.	.	.	.	.	.	.
8GG/L	.	8g\L	8b-\L	8GG/	.	.	8r	.	.	8r	.	.
8AA/J	.	8cc\	8a\	8AA/	te	te	8a\	laú-	lau-	8cc\	laú-	lau-
*	*	*	*	*custos:BB-	*	*	*	*	*	*	*	*
!	!	!	!	!LO:LB:g=original	!	!	!	!	!	!	!	!
!LO:TX:t=P:problem:kreska pseudotaktowa	!	!	!	!	!	!	!	!	!	!	!	!
4BB-/	.	8f\	8dd\	8BB-/	E-	e-	8d/	-da-	-da-	8dd\	-da-	-da-
!	!	!	!LO:TX:t=P:problem:kreska pseudotaktowa	!	!	!	!LO:TX:t=P:problem:kreska pseudotaktowa	!	!	!LO:TX:t=P:problem:kreska pseudotaktowa	!	!
.	.	8f\J	8dd\J	8BB-/	-um	-um	8d/	-te	-te	8dd\	-te	-te
=95-	=95-	=95-	=95-	=95-	=95-	=95-	=95-	=95-	=95-	=95-	=95-	=95-
4C/	.	8e/L	8cc\L	4C/	om-	om-	(<16e/LL	e-	e-	8cc\	e-	e-
.	.	.	.	.	.	.	16f/JJ)	.	.	.	.	.
.	.	8g/	8cc\	.	.	.	(<16e/LL	-úm	-um	8cc\	-úm	-um
.	.	.	.	.	.	.	16f/JJ)	.	.	.	.	.
4GG/	.	8d/	8dd\	4GG/	-nes	-nes	8g\	om-	om-	8b-\	om-	om-
.	.	8d/J	8dd\J	.	.	.	8g\	-nes	-nes	8b-\	-nes	-nes
*	*	*	*	*	*	*	*	*	*	*custos:a	*	*
!	!	!	!	!	!	!	!	!	!	!LO:LB:g=original	!	!
4C/	6 5	4e/	4.a\	4C/	po-	po-	4.g/	po-	po-	16a\LL	po-	po-
.	.	.	.	.	.	.	.	.	.	16g\	.	.
.	.	.	.	.	.	.	.	.	.	16a\	.	.
.	.	.	.	.	.	.	.	.	.	16b-\JJ	.	.
!LO:TX:t=P:problem:kreska pseudotaktowa	!	!	!	!LO:TX:t=P:problem:kreska pseudotaktowa	!	!	!	!	!	!	!	!
4D/	4:# X	4d/	.	4D/	-pú-	-pu-	.	.	.	8.a\	.	.
!	!	!	!LO:SIC:v:s=8f#/	!	!	!	!LO:TX:t=P:problem:kreska pseudotaktowa	!	!	!	!	!
.	.	.	8g/	.	.	.	8f#X/	-pú-	-pu-	.	.	.
!	!	!	!	!	!	!	!	!	!	!LO:TX:t=P:problem:kreska pseudotaktowa	!	!
.	.	.	.	.	.	.	.	.	.	16a\	-pú-	-pu-
=96-	=96-	=96-	=96-	=96-	=96-	=96-	=96-	=96-	=96-	=96-	=96-	=96-
!	!	!	!	!	!	!	!	!	!	!LO:MO:mod=!null:null	!	!
!	!	!	!	!	!	!	!	!	!	!LO:N:acc=#	!	!
4GG/	.	2d/	2g/	4GG/	-li,	-li,	4g/	-li	-li,	4bn\	-li	-li.
!	!	!	!	!	!	!	!LO:MO:mod=!null:null	!	!	!	!	!
!	!	!	!	!	!	!	!LO:N:acc=#	!	!	!	!	!
4G\	.	.	.	8G\	qui-	qui-	8bn\	qui-	qui-	4r	.	.
.	.	.	.	8G\	-a	-a	8b\	-a	-a	.	.	.
2E-X\	6 3	2e-X/	2g/	4.E-X\	Do-	Do-	4.cc\	Do-	Do-	2r	.	.
!	!	!	!	!LO:TX:t=P:problem:kreska pseudotaktowa	!	!	!LO:TX:t=P:problem:kreska pseudotaktowa	!	!	!	!	!
.	.	.	.	8E-\	-mi-	-mi-	8cc\	-mi-	-mi-	.	.	.
!LO:SIC:v:t=custos 8BBn:acc=#	!	!	!	!	!	!	!	!	!	!	!	!
*custos:BBn	*	*	*	*	*	*	*	*	*	*	*	*
!LO:PB:g=original	!	!	!	!	!	!	!	!	!	!	!	!
=97-	=97-	=97-	=97-	=97-	=97-	=97-	=97-	=97-	=97-	=97-	=97-	=97-
!LO:MO:mod=!null:null	!	!	!LO:MO:mod=!null:null	!LO:MO:mod=!null:null	!	!	!	!	!	!	!	!
!LO:N:acc=#	!	!	!LO:N:acc=#	!LO:N:acc=#	!	!	!	!	!	!	!	!
1BBn	.	2g/	1bn	2BBn/	-nús	-nus	2dd\	-n(us)	-nus	1r	.	.
.	.	2f/	.	4.BB/	mi-	mi-	4.ff\	mi-	mi-	.	.	.
.	.	.	.	8BB/	-ſe-	-ſe-	8ee-X\	-ſe-	-ſe-	.	.	.
*	*	*custos:cc	*custos:g	*	*	*	*custos:ee	*	*	*	*	*
!	!	!LO:LB:g=original	!LO:LB:g=original	!	!	!	!LO:LB:g=original	!	!	!	!	!
=98-	=98-	=98-	=98-	=98-	=98-	=98-	=98-	=98-	=98-	=98-	=98-	=98-
2C/	- X	2cc\	2g/	4C/	-re-	-re-	4ee-\	-re-	-re-	2r	.	.
.	.	.	.	4C/	-túr,	-tur,	4ee-\	-túr,	-tur,	.	.	.
!	!	!	!	!	!	!	!LO:MO:mod=!null:null	!	!	!	!	!
!LO:TX:t=P:problem:kreska pseudotaktowa	!	!	!	!	!	!	!LO:N:acc=#	!	!	!	!	!
2D/	6\ X	2f/	2cc\	4.D/	mi-	mi-	4.bn\	mi-	mi-	4.ff\	mi-	Mi-
!	!	!	!	!	!	!	!LO:TX:t=P:problem:kreska pseudotaktowa	!	!	!LO:TX:t=P:problem:kreska pseudotaktowa	!	!
.	.	.	.	8D/	-ſe-	-ſe-	8b\	-ſe-	-ſe-	8ff\	-ſe-	-ſe-
*	*	*	*	*custos:C	*	*	*	*	*	*	*	*
!	!	!	!	!LO:LB:g=original	!	!	!	!	!	!	!	!
=99-	=99-	=99-	=99-	=99-	=99-	=99-	=99-	=99-	=99-	=99-	=99-	=99-
2C/	- X	1cc	2g/	4C/	-re-	-re-	4cc\	-re-	-re-	4ee-X\	-ri-	-ri-
.	.	.	.	4C/	-túr	-tur,	4cc\	-túr,	-tur,	4ee-\	-túr	-tur,
*	*	*	*	*	*	*	*	*	*	*	*ij	*
!	!	!	!LO:SIC:v:s=2e-/	!	!	!	!	!	!	!	!	!
1C/	# 6 5	.	2e/	4C/	mi-	mi-	4g/	mi-	mi-	4.cc\	mi-	mi-
!	!	!	!	!LO:TX:t=P:problem:kreska pseudotaktowa	!	!	!	!	!	!	!	!
.	.	.	.	4C/	-ſe-	-ſe-	4a\	-ſe-	-ſe-	.	.	.
.	X 4 2	.	.	.	.	.	.	.	.	8cc\	-ſe-	-ſe-
=100-	=100-	=100-	=100-	=100-	=100-	=100-	=100-	=100-	=100-	=100-	=100-	=100-
!	!	!	!LO:SIC:v:s=4.d/	!	!	!	!	!	!	!	!	!
.	.	2f#X/	4.e/	2C/	-re-	-re-	2f#X/	-re-	-re-	2dd\	-ri-	-ri-
.	.	.	8f#X/	.	.	.	.	.	.	.	.	.
!LO:TX:t=P:problem:kreska pseudotaktowa	!	!	!	!	!	!	!LO:TX:t=P:problem:kreska pseudotaktowa	!	!	!LO:TX:t=P:problem:kreska pseudotaktowa	!	!
2BB-/	X 6 X	2b-\	2d/	2BB-/	-túr	-tur	2g/	-túr	-tur	2dd\	-túr	-tur
*	*	*	*	*	*	*	*	*	*	*	*Xij	*
=101-	=101-	=101-	=101-	=101-	=101-	=101-	=101-	=101-	=101-	=101-	=101-	=101-
2AA/	X 7 X	2eny/	2a\	4.AA/	om-	om-	4.g/	om-	om-	4.cc\	om-	om-
.	X 6\ X	.	.	8AA/	-ni-	-ni-	8f#X/	-ni-	-ni-	8cc\	-ni-	-ni-
*	*	*	*	*	*	*	*	*	*	*2\right	*	*
!	!	!	!	!LO:TX:t=P:problem:kreska pseudotaktowa	!	!	!LO:TX:t=P:problem:kreska pseudotaktowa	!	!	!LO:TX:t=P:problem:kreska pseudotaktowa	!	!
2GG/	.	2g/	2dd\	2GG/	-um,	-um,	2g/	-úm	-um,	2b-\	-úm	-um,
!!linebreak:original
=102-	=102-	=102-	=102-	=102-	=102-	=102-	=102-	=102-	=102-	=102-	=102-	=102-
*	*	*	*	*	*	*	*	*	*	*	*ij	*
2C/	X 7 3	2g/	1cc	4.C/	om-	om-	4.e/	om-	om-	4.b-\	om-	om-
.	.	.	.	8C/	-ni-	-ni-	8f/	-ni-	-ni-	8a-X\	-ni-	-ni-
*	*	*	*	*	*	*	*	*	*	*custos:a	*	*
!	!	!	!	!	!	!	!	!	!	!LO:LB:g=original	!	!
2FF/	X - X	2a-X\	.	4F\	-úm	-um	4f/	-úm	-um	4a-\	-úm	-um
*	*	*	*	*	*	*	*	*	*	*	*Xij	*
.	.	.	.	8F\	in-	in-	8f/	in-	in-	8a-\	in-	in-
!	!	!	!	!LO:TX:t=P:problem:kreska pseudotaktowa	!	!	!LO:TX:t=P:problem:kreska pseudotaktowa	!	!	!	!	!
.	.	.	.	8F\	-vo-	-vo-	8f/	-vo-	-vo-	8a-\	-vo-	-vo-
!	!	!	!	!	!	!	!LO:LB:g=original	!	!	!	!	!
=103-	=103-	=103-	=103-	=103-	=103-	=103-	=103-	=103-	=103-	=103-	=103-	=103-
!LO:MO:mod=!null:null	!	!LO:MO:mod=!null:null	!	!LO:MO:mod=!null:null	!	!	!	!	!	!	!	!
!LO:N:acc=#	!	!LO:N:acc=#	!	!LO:N:acc=#	!	!	!	!	!	!	!	!
2BBn/	X 6 5	2bn\	2dd\	4.BBn/	-can-	-can-	4.f/	-can-	-can-	2g/	-can-	-can-
.	.	.	.	8BB/	-ti-	-ti-	8e-X/	-ti-	-ti-	.	.	.
2C/	X - X	2g/	2cc\	2C/	-úm	-um	4e-/	-úm	-um	4g/	-ti-	-ti-
!	!	!	!	!	!	!	!LO:TX:t=P:problem:kreska pseudotaktowa	!	!	!	!	!
.	.	.	.	.	.	.	[>4cc\	E-	e-	4e-X/	-úm	-um
*	*	*	*	*custos:F	*	*	*	*	*	*	*	*
!	!	!	!	!LO:LB:g=original	!	!	!	!	!	!	!	!
=104-	=104-	=104-	=104-	=104-	=104-	=104-	=104-	=104-	=104-	=104-	=104-	=104-
4FF/	X 6 5	4f/ny	4a\	(>4F\	E-	e-	4cc\]	.	.	2d/	E-	e-
!	!	!	!	!	!	!	!LO:MO:mod=!null:null	!	!	!	!	!
!	!	!	!	!	!	!	!LO:N:acc=#	!	!	!	!	!
4GG/	X 4:# X	4bny\	4dd\	4G\)	.	.	4bn\	.	.	.	.	.
!	!	!	!	!	!	!	!	!	!	!LO:MO:mod=!null:null	!	!
!	!	!	!LO:TX:t=P:problem:kreska pseudotaktowa	!	!	!	!	!	!	!LO:N:acc=#	!	!
2C/	.	2g/	2cc\	4C/	-úm	-um,	4cc\	-úm	-um,	4en/	-úm,	-um,
.	.	.	.	8C/	in-	in-	8e/	in-	in-	8cc\	in-	in-
!	!	!	!	!LO:TX:t=P:problem:kreska pseudotaktowa	!	!	!LO:TX:t=P:problem:kreska pseudotaktowa	!	!	!LO:TX:t=P:problem:kreska pseudotaktowa	!	!
.	.	.	.	8C/	-vo-	-vo-	8e/	-vo-	-vo-	8cc\	-vo-	-vo-
=105-	=105-	=105-	=105-	=105-	=105-	=105-	=105-	=105-	=105-	=105-	=105-	=105-
1D	X 7 #	2f#X/	2a\	2.D/	-can-	-can-	4.f#X/	-can-	-can-	4.cc\	-can-	-can-
.	.	.	.	.	.	.	8f#/	-ti-	-ti-	8cc\	-ti-	-ti-
*	*	*	*	*	*	*	*	*	*	*2\left	*	*
.	.	2d/	4.b-\	.	.	.	2g/	-úm	-um	2b-\	-úm	-um
.	X 6 4	.	.	8D/	-ti-	-ti-	.	.	.	.	.	.
.	.	.	8cc\	8D/	-úm	-um	.	.	.	.	.	.
=106-	=106-	=106-	=106-	=106-	=106-	=106-	=106-	=106-	=106-	=106-	=106-	=106-
!	!	!	!	!LO:TX:t=P:problem:kreska pseudotaktowa	!	!	!	!	!	!	!	!
1D	X 5 4:#	1d	2.dd\	1D	E-	e-	4f#X/	E-	e-	1a	E-	e-
.	.	.	.	.	.	.	2g/	.	.	.	.	.
.	.	.	4cc\	.	.	.	4f#X/	.	.	.	.	.
=107-	=107-	=107-	=107-	=107-	=107-	=107-	=107-	=107-	=107-	=107-	=107-	=107-
!	!	!	!LO:MO:mod=!null:null	!	!	!	!	!	!	!LO:MO:mod=!null:null	!	!
!LO:SIC:s=1GG;	!	!	!LO:N:acc=#	!	!	!	!	!	!	!LO:N:acc=#	!	!
1GG	.	1d;>	1bn;>	1GG;>	-úm.	-um.	1g;>	-úm	-um.	1bn;>	-úm	-um.
==	==	==	==	==	==	==	==	==	==	==	==	==
*-	*-	*-	*-	*-	*-	*-	*-	*-	*-	*-	*-	*-
!!!system-decoration: [(g1)][(g2)]
!!!RDF**kern: > = above
!!!RDF**kern: < = below
!!!filter-modern: shed -e "s/:t=P:/:T=P:/L"
!!!filter-modern: shed -e "s/-//B"
!!!filter-modern: shed -e "s/^(\d+[\/\\]right)/$1yy/I; s/^(\d+[\/\\]left)/$1yy/I"
!!!filter-modern: shed -e "s/^custos:/Xcustos:/I"
!!!filter-modern: shed -e "s/yy//"
!!!filter-modern: shed -k -e "s/\(y(?!y)/(/"
!!!filter-modern: shed -k -e "s/ny//D"
!!!filter-modern: shed -e "s/#y/#/D"
!!!filter-modern: shed -e "s/-y/-/D"
!!!filter-modern: shed -k -e "s/([\(\)\[\]])[><]/$1/g"
!!!filter-modern: shed -k -e "s/([()[]_])[><]/$1/g"
!!!filter-modern: tie -s
!!!filter-modern: shed -e "s/^(X?)rep$/$1REP/I"
!!!filter-modern: shed -k -e "s/^(X?)tuplet/$1TUPLET/I"
!!!filter-modern: shed -e "s/LO:DY:(a|b|rj)/LO:dy:$1/L"
!!!filter-modern: shed -e "s/LO:HP:(a|b)/LO:hp:$1/L"
!!!filter-modern: shed -k -e "s/r[a-gA-G]+/r/D"
!!!filter-modern: shed -k -e "s/([^a-gA-Gn#-])[<>]/$1/g"
!!!filter-modern: sic -sq
!!!filter-modern: autostem -r
!!!filter-modern: modori -m
!!!filter-modern: humtr -p
!!!ENC: Anastazja Marusiak
!!!END: 2022-01-26
!!!EED: Jędrzej Mróz
!!!EEV: 2022-02-27
!!!ENC-modern: Krzysztof Stępień
!!!END-modern: 2022-11-15
